%
(Header)
(Generated by gcodetools from Inkscape.)
(Using default header. To add your own header create file "header" in the output dir.)
M3
(Header end.)
G21 (All units in mm)

(Start cutting path id: text3472)
(Change tool to Cylindrical cutter)

G00 Z5.000000
G00 X9.999906 Y-7.489892

G01 Z-1.000000 F100.0(Penetrate)
G03 X9.155127 Y-7.307484 Z-1.000000 I-0.435738 J0.029382 F400.000000
G02 X9.018004 Y-7.274121 Z-1.000000 I-0.066562 J0.024901
G02 X9.164206 Y-6.203624 Z-1.000000 I0.982218 J0.411087
G02 X9.999906 Y-6.487117 Z-1.000000 I0.367582 J-0.289931
G01 X9.999906 Y-7.489892 Z-1.000000
G01 X9.999906 Y-7.489892 Z-1.000000
G00 Z5.000000

(End cutting path id: text3472)


(Start cutting path id: text3472)
(Change tool to Cylindrical cutter)

G00 Z5.000000
G00 X9.844877 Y-6.480651

G01 Z-1.000000 F100.0(Penetrate)
G03 X9.557675 Y-5.656310 Z-1.000000 I-0.789306 J0.187205 F400.000000
G03 X9.257699 Y-5.668189 Z-1.000000 I-0.143035 J-0.181502
G03 X9.165819 Y-6.027641 Z-1.000000 I0.232026 J-0.250777
G03 X9.844877 Y-6.480651 Z-1.000000 I0.632118 J0.212082
G01 X9.844877 Y-6.480651 Z-1.000000
G00 Z5.000000

(End cutting path id: text3472)


(Start cutting path id: text3472)
(Change tool to Cylindrical cutter)

G00 Z5.000000
G00 X11.161076 Y-7.567406

G01 Z-1.000000 F100.0(Penetrate)
G02 X10.538010 Y-5.940587 Z-1.000000 I-0.061811 J0.909052 F400.000000
G02 X10.756033 Y-6.172143 Z-1.000000 I0.098368 J-0.125799
G03 X10.348677 Y-7.326061 Z-1.000000 I0.250835 J-0.737411
G03 X11.161076 Y-7.567406 Z-1.000000 I0.544389 J0.344493
G01 X11.161076 Y-7.567406 Z-1.000000
G00 Z5.000000

(End cutting path id: text3472)


(Start cutting path id: text3472)
(Change tool to Cylindrical cutter)

G00 Z5.000000
G00 X12.478825 Y-7.489891

G01 Z-1.000000 F100.0(Penetrate)
G03 X11.920351 Y-7.164799 Z-1.000000 I-0.399427 J-0.043929 F400.000000
G02 X11.548649 Y-6.882328 Z-1.000000 I-0.106102 J0.246177
G02 X11.921259 Y-6.455223 Z-1.000000 I0.365733 J0.057018
G03 X12.401310 Y-6.017113 Z-1.000000 I0.008779 J0.472438
G02 X12.496289 Y-6.720429 Z-1.000000 I-1.100467 J-0.506684
G03 X12.478830 Y-7.489892 Z-1.000000 I2.714717 J-0.446527
G01 X12.478825 Y-7.489891 Z-1.000000
G00 Z5.000000

(End cutting path id: text3472)


(Start cutting path id: text3472)
(Change tool to Cylindrical cutter)

G00 Z5.000000
G00 X13.564030 Y-7.257347

G01 Z-1.000000 F100.0(Penetrate)
G03 X13.267188 Y-7.062503 Z-1.000000 I-0.184599 J0.042306 F400.000000
G03 X13.301463 Y-7.412377 Z-1.000000 I0.121221 J-0.164741
G03 X13.460897 Y-7.401249 Z-1.000000 I0.055603 J0.351053
G03 X13.564030 Y-7.257347 Z-1.000000 I-0.042590 J0.139432
G01 X13.564030 Y-7.257347 Z-1.000000
G00 Z5.000000

(End cutting path id: text3472)


(Start cutting path id: text3472)
(Change tool to Cylindrical cutter)

G00 Z5.000000
G00 X13.719059 Y-7.257347

G01 Z-1.000000 F100.0(Penetrate)
G02 X12.867343 Y-6.725990 Z-1.000000 I-0.339661 J0.403844 F400.000000
G02 X13.719059 Y-6.732214 Z-1.000000 I0.425107 J-0.105861
G01 X13.719059 Y-7.257347 Z-1.000000
G01 X13.719059 Y-7.257347 Z-1.000000
G00 Z5.000000

(End cutting path id: text3472)


(Start cutting path id: text3472)
(Change tool to Cylindrical cutter)

G00 Z5.000000
G00 X14.881779 Y-7.567406

G01 Z-1.000000 F100.0(Penetrate)
G02 X14.258713 Y-5.940587 Z-1.000000 I-0.061811 J0.909052 F400.000000
G02 X14.476736 Y-6.172142 Z-1.000000 I0.098368 J-0.125799
G03 X14.069380 Y-7.326061 Z-1.000000 I0.250835 J-0.737411
G03 X14.881779 Y-7.567406 Z-1.000000 I0.544389 J0.344493
G01 X14.881779 Y-7.567406 Z-1.000000
G00 Z5.000000

(End cutting path id: text3472)


(Start cutting path id: text3472)
(Change tool to Cylindrical cutter)

G00 Z5.000000
G00 X15.889469 Y-6.172142

G01 Z-1.000000 F100.0(Penetrate)
G02 X15.620288 Y-6.298763 Z-1.000000 I-5.050840 J10.388067 F400.000000
G02 X15.269352 Y-6.094627 Z-1.000000 I-0.103040 J0.226581
G02 X16.814525 Y-6.863957 Z-1.000000 I0.594020 J-0.743309
G02 X16.509586 Y-6.882327 Z-1.000000 I-0.153275 J0.004193
G03 X16.057447 Y-6.889666 Z-1.000000 I-0.225676 J-0.027941
G02 X15.889469 Y-6.882327 Z-1.000000 I-0.083816 J0.007625
G01 X15.889469 Y-6.172142 Z-1.000000
G01 X15.889469 Y-6.172142 Z-1.000000
G00 Z5.000000

(End cutting path id: text3472)


(Start cutting path id: text3472)
(Change tool to Cylindrical cutter)

G00 Z5.000000
G00 X17.749821 Y-7.257347

G01 Z-1.000000 F100.0(Penetrate)
G03 X17.347017 Y-6.903793 Z-1.000000 I-0.429747 J-0.083376 F400.000000
G03 X17.145159 Y-7.026857 Z-1.000000 I-0.012716 J-0.206224
G03 X17.198710 Y-7.236662 Z-1.000000 I0.160793 J-0.070696
G03 X17.749821 Y-7.257347 Z-1.000000 I0.290066 J0.376261
G01 X17.749821 Y-7.257347 Z-1.000000
G00 Z5.000000

(End cutting path id: text3472)


(Start cutting path id: text3472)
(Change tool to Cylindrical cutter)

G00 Z5.000000
G00 X17.904850 Y-7.257347

G01 Z-1.000000 F100.0(Penetrate)
G02 X16.555479 Y-6.690904 Z-1.000000 I-0.602183 J0.455935 F400.000000
G02 X17.129703 Y-6.714745 Z-1.000000 I0.285852 J-0.042277
G02 X17.631570 Y-6.764214 Z-1.000000 I0.141416 J-1.135807
G02 X17.904850 Y-7.257347 Z-1.000000 I-0.131030 J-0.394901
G01 X17.904850 Y-7.257347 Z-1.000000
G00 Z5.000000

(End cutting path id: text3472)


(Start cutting path id: text3472)
(Change tool to Cylindrical cutter)

G00 Z5.000000
G00 X20.075260 Y-7.489891

G01 Z-1.000000 F100.0(Penetrate)
G03 X19.516786 Y-7.164799 Z-1.000000 I-0.399427 J-0.043929 F400.000000
G02 X19.145084 Y-6.882327 Z-1.000000 I-0.106102 J0.246177
G02 X19.517694 Y-6.455223 Z-1.000000 I0.365733 J0.057018
G03 X19.997745 Y-6.017113 Z-1.000000 I0.008780 J0.472438
G02 X20.092725 Y-6.720428 Z-1.000000 I-1.100458 J-0.506683
G03 X20.075265 Y-7.489891 Z-1.000000 I2.714704 J-0.446529
G01 X20.075260 Y-7.489891 Z-1.000000
G00 Z5.000000

(End cutting path id: text3472)


(Start cutting path id: text3472)
(Change tool to Cylindrical cutter)

G00 Z5.000000
G00 X21.143412 Y-7.257347

G01 Z-1.000000 F100.0(Penetrate)
G03 X20.851091 Y-7.061214 Z-1.000000 I-0.182197 J0.044358 F400.000000
G03 X20.880845 Y-7.412377 Z-1.000000 I0.120881 J-0.166600
G03 X21.040280 Y-7.401249 Z-1.000000 I0.055603 J0.351052
G03 X21.143412 Y-7.257347 Z-1.000000 I-0.042590 J0.139432
G01 X21.143412 Y-7.257347 Z-1.000000
G00 Z5.000000

(End cutting path id: text3472)


(Start cutting path id: text3472)
(Change tool to Cylindrical cutter)

G00 Z5.000000
G00 X21.459672 Y-7.491442

G01 Z-1.000000 F100.0(Penetrate)
G02 X20.116283 Y-6.660637 Z-1.000000 I-0.465448 J0.748897 F400.000000
G02 X21.298441 Y-6.297149 Z-1.000000 I0.666068 J-0.062141
G02 X21.284281 Y-6.909045 Z-1.000000 I-1.648866 J-0.267954
G03 X21.459672 Y-7.491442 Z-1.000000 I0.620870 J-0.130631
G01 X21.459672 Y-7.491442 Z-1.000000
G00 Z5.000000

(End cutting path id: text3472)


(Start cutting path id: text3472)
(Change tool to Cylindrical cutter)

G00 Z5.000000
G00 X23.020817 Y-7.489882

G01 Z-1.000000 F100.0(Penetrate)
G02 X21.475903 Y-6.720497 Z-1.000000 I-0.593897 J0.743238 F400.000000
G02 X21.780582 Y-6.702182 Z-1.000000 I0.153143 J-0.004210
G03 X22.233086 Y-6.694873 Z-1.000000 I0.225862 J0.027834
G02 X22.400699 Y-6.702182 Z-1.000000 I0.083635 J-0.007574
G03 X22.861916 Y-6.695657 Z-1.000000 I0.230296 J0.025353
G02 X23.020817 Y-6.702182 Z-1.000000 I0.079319 J-0.006467
G01 X23.020817 Y-7.489882 Z-1.000000
G01 X23.020817 Y-7.489882 Z-1.000000
G00 Z5.000000

(End cutting path id: text3472)


(Start cutting path id: text3472)
(Change tool to Cylindrical cutter)

G00 Z5.000000
G00 X23.485905 Y-6.869765

G01 Z-1.000000 F100.0(Penetrate)
G01 X23.507548 Y-6.847894 Z-1.000000 F400.000000
G02 X23.330875 Y-6.328723 Z-1.000000 I0.498504 J0.459286
G02 X23.934598 Y-6.370331 Z-1.000000 I0.291312 J-0.173878
G02 X23.485905 Y-6.869765 Z-1.000000 I-0.341409 J-0.144547
G01 X23.485905 Y-6.869765 Z-1.000000
G00 Z5.000000

(End cutting path id: text3472)


(Start cutting path id: text3472)
(Change tool to Cylindrical cutter)

G00 Z5.000000
G00 X23.485905 Y-6.716286

G01 Z-1.000000 F100.0(Penetrate)
G03 X24.066068 Y-6.485225 Z-1.000000 I0.100178 J0.592353 F400.000000
G03 X24.047378 Y-6.284828 Z-1.000000 I-0.119471 J0.089928
G03 X23.778425 Y-6.231661 Z-1.000000 I-0.178384 J-0.195531
G03 X23.485905 Y-6.716286 Z-1.000000 I0.154314 J-0.423739
G01 X23.485905 Y-6.716286 Z-1.000000
G00 Z5.000000

(End cutting path id: text3472)


(Start cutting path id: text3472)
(Change tool to Cylindrical cutter)

G00 Z5.000000
G00 X25.189677 Y-5.552015

G01 Z-1.000000 F100.0(Penetrate)
G02 X24.890616 Y-5.478656 Z-1.000000 I-0.044788 J0.463679 F400.000000
G01 X24.893667 Y-5.428116 Z-1.000000
G02 X25.081416 Y-5.393525 Z-1.000000 I0.155260 J-0.315892
G02 X25.189677 Y-5.552015 Z-1.000000 I-0.011502 J-0.124077
G01 X25.189677 Y-5.552015 Z-1.000000
G00 Z5.000000

(End cutting path id: text3472)


(Start cutting path id: text3472)
(Change tool to Cylindrical cutter)

G00 Z5.000000
G00 X25.501285 Y-7.489882

G01 Z-1.000000 F100.0(Penetrate)
G02 X24.841899 Y-7.106382 Z-1.000000 I-0.200626 J0.413668 F400.000000
G03 X24.726139 Y-7.107224 Z-1.000000 I-0.057855 J-0.003804
G03 X25.418735 Y-6.908552 Z-1.000000 I0.320582 J0.188984
G01 X25.501285 Y-6.904703 Z-1.000000
G01 X25.501285 Y-7.489882 Z-1.000000
G01 X25.501285 Y-7.489882 Z-1.000000
G00 Z5.000000

(End cutting path id: text3472)


(Start cutting path id: text3472)
(Change tool to Cylindrical cutter)

G00 Z5.000000
G00 X27.671696 Y-7.489881

G01 Z-1.000000 F100.0(Penetrate)
G03 X27.423287 Y-7.017473 Z-1.000000 I-0.458743 J0.060292 F400.000000
G03 X26.896549 Y-7.387259 Z-1.000000 I-0.165509 J-0.324289
G02 X26.591119 Y-6.605539 Z-1.000000 I0.110584 J0.493735
G02 X27.671696 Y-6.934725 Z-1.000000 I0.487602 J-0.337541
G01 X27.671696 Y-7.489881 Z-1.000000
G01 X27.671696 Y-7.489881 Z-1.000000
G00 Z5.000000

(End cutting path id: text3472)


(Start cutting path id: text3472)
(Change tool to Cylindrical cutter)

G00 Z5.000000
G00 X28.756901 Y-7.257337

G01 Z-1.000000 F100.0(Penetrate)
G03 X28.460057 Y-7.062492 Z-1.000000 I-0.184600 J0.042306 F400.000000
G03 X28.494333 Y-7.412367 Z-1.000000 I0.121222 J-0.164741
G03 X28.653768 Y-7.401237 Z-1.000000 I0.055600 J0.351065
G03 X28.756901 Y-7.257337 Z-1.000000 I-0.042590 J0.139432
G01 X28.756901 Y-7.257337 Z-1.000000
G00 Z5.000000

(End cutting path id: text3472)


(Start cutting path id: text3472)
(Change tool to Cylindrical cutter)

G00 Z5.000000
G00 X28.911931 Y-7.257337

G01 Z-1.000000 F100.0(Penetrate)
G02 X28.060216 Y-6.725980 Z-1.000000 I-0.339661 J0.403844 F400.000000
G02 X28.911931 Y-6.732204 Z-1.000000 I0.425107 J-0.105861
G01 X28.911931 Y-7.257337 Z-1.000000
G01 X28.911931 Y-7.257337 Z-1.000000
G00 Z5.000000

(End cutting path id: text3472)


(Start cutting path id: text3472)
(Change tool to Cylindrical cutter)

G00 Z5.000000
G00 X30.074650 Y-7.257337

G01 Z-1.000000 F100.0(Penetrate)
G02 X29.754428 Y-7.075218 Z-1.000000 I-0.075581 J0.239690 F400.000000
G03 X29.592500 Y-6.869774 Z-1.000000 I-0.301227 J-0.070887
G03 X29.768800 Y-6.553756 Z-1.000000 I-0.171746 J0.303000
G02 X30.074647 Y-6.327172 Z-1.000000 I0.230468 J0.008621
G02 X30.037447 Y-6.780394 Z-1.000000 I-18.959855 J1.328070
G03 X30.074650 Y-7.257337 Z-1.000000 I1.393775 J-0.131204
G01 X30.074650 Y-7.257337 Z-1.000000
G00 Z5.000000

(End cutting path id: text3472)


(Start cutting path id: text3472)
(Change tool to Cylindrical cutter)

G00 Z5.000000
G00 X31.314884 Y-7.489881

G01 Z-1.000000 F100.0(Penetrate)
G02 X30.655497 Y-7.106381 Z-1.000000 I-0.200626 J0.413668 F400.000000
G03 X30.539737 Y-7.107224 Z-1.000000 I-0.057855 J-0.003805
G03 X31.232334 Y-6.908551 Z-1.000000 I0.320583 J0.188984
G01 X31.314884 Y-6.904702 Z-1.000000
G01 X31.314884 Y-7.489881 Z-1.000000
G01 X31.314884 Y-7.489881 Z-1.000000
G00 Z5.000000

(End cutting path id: text3472)


(Start cutting path id: text3472)
(Change tool to Cylindrical cutter)

G00 Z5.000000
G00 X32.711699 Y-7.799940

G01 Z-1.000000 F100.0(Penetrate)
G02 X30.966873 Y-6.997258 Z-1.000000 I-0.542412 J1.118678 F400.000000
G02 X31.779972 Y-6.297149 Z-1.000000 I0.577322 J0.151721
G03 X32.345418 Y-6.600419 Z-1.000000 I0.352142 J-0.022204
G03 X32.556669 Y-6.094628 Z-1.000000 I-0.330010 J0.434845
G03 X32.564661 Y-7.043511 Z-1.000000 I8.688884 J-0.401294
G03 X32.711699 Y-7.799940 Z-1.000000 I2.989264 J0.188562
G01 X32.711699 Y-7.799940 Z-1.000000
G00 Z5.000000

(End cutting path id: text3472)


(Start cutting path id: text3472)
(Change tool to Cylindrical cutter)

G00 Z5.000000
G00 X33.950383 Y-7.489881

G01 Z-1.000000 F100.0(Penetrate)
G02 X33.290996 Y-7.106381 Z-1.000000 I-0.200626 J0.413668 F400.000000
G03 X33.175236 Y-7.107224 Z-1.000000 I-0.057855 J-0.003805
G03 X33.867833 Y-6.908551 Z-1.000000 I0.320583 J0.188984
G01 X33.950383 Y-6.904702 Z-1.000000
G01 X33.950383 Y-7.489881 Z-1.000000
G01 X33.950383 Y-7.489881 Z-1.000000
G00 Z5.000000

(End cutting path id: text3472)


(Start cutting path id: text3472)
(Change tool to Cylindrical cutter)

G00 Z5.000000
G00 X35.190617 Y-7.489881

G01 Z-1.000000 F100.0(Penetrate)
G02 X34.531230 Y-7.106381 Z-1.000000 I-0.200626 J0.413668 F400.000000
G03 X34.415470 Y-7.107224 Z-1.000000 I-0.057855 J-0.003805
G03 X35.108067 Y-6.908551 Z-1.000000 I0.320583 J0.188984
G01 X35.190617 Y-6.904702 Z-1.000000
G01 X35.190617 Y-7.489881 Z-1.000000
G01 X35.190617 Y-7.489881 Z-1.000000
G00 Z5.000000

(End cutting path id: text3472)


(Start cutting path id: text3472)
(Change tool to Cylindrical cutter)

G00 Z5.000000
G00 X37.205996 Y-7.257337

G01 Z-1.000000 F100.0(Penetrate)
G03 X36.909154 Y-7.062492 Z-1.000000 I-0.184599 J0.042306 F400.000000
G03 X36.943429 Y-7.412367 Z-1.000000 I0.121221 J-0.164741
G03 X37.102865 Y-7.401237 Z-1.000000 I0.055602 J0.351053
G03 X37.205996 Y-7.257337 Z-1.000000 I-0.042591 J0.139431
G01 X37.205996 Y-7.257337 Z-1.000000
G00 Z5.000000

(End cutting path id: text3472)


(Start cutting path id: text3472)
(Change tool to Cylindrical cutter)

G00 Z5.000000
G00 X37.361026 Y-7.257337

G01 Z-1.000000 F100.0(Penetrate)
G02 X36.509308 Y-6.725979 Z-1.000000 I-0.339662 J0.403844 F400.000000
G02 X37.361026 Y-6.732204 Z-1.000000 I0.425108 J-0.105861
G01 X37.361026 Y-7.257337 Z-1.000000
G01 X37.361026 Y-7.257337 Z-1.000000
G00 Z5.000000

(End cutting path id: text3472)


(Start cutting path id: text3472)
(Change tool to Cylindrical cutter)

G00 Z5.000000
G00 X38.601261 Y-7.489881

G01 Z-1.000000 F100.0(Penetrate)
G02 X37.922423 Y-6.504871 Z-1.000000 I6.244834 J5.030166 F400.000000
G03 X37.826113 Y-6.559705 Z-1.000000 I-0.047849 J-0.027955
G02 X38.213832 Y-6.707043 Z-1.000000 I-0.541851 J-2.009688
G02 X38.601261 Y-7.309745 Z-1.000000 I-0.312997 J-0.627076
G01 X38.601261 Y-7.489881 Z-1.000000
G00 Z5.000000

(End cutting path id: text3472)


(Start cutting path id: text3472)
(Change tool to Cylindrical cutter)

G00 Z5.000000
G00 X39.066348 Y-6.869764

G01 Z-1.000000 F100.0(Penetrate)
G01 X39.087992 Y-6.847892 Z-1.000000 F400.000000
G02 X38.911320 Y-6.328722 Z-1.000000 I0.498505 J0.459285
G02 X39.515041 Y-6.370331 Z-1.000000 I0.291311 J-0.173877
G02 X39.066348 Y-6.869764 Z-1.000000 I-0.341410 J-0.144547
G01 X39.066348 Y-6.869764 Z-1.000000
G00 Z5.000000

(End cutting path id: text3472)


(Start cutting path id: text3472)
(Change tool to Cylindrical cutter)

G00 Z5.000000
G00 X39.066348 Y-6.716285

G01 Z-1.000000 F100.0(Penetrate)
G03 X39.646511 Y-6.485224 Z-1.000000 I0.100178 J0.592353 F400.000000
G03 X39.627822 Y-6.284828 Z-1.000000 I-0.119471 J0.089928
G03 X39.358869 Y-6.231660 Z-1.000000 I-0.178384 J-0.195530
G03 X39.066348 Y-6.716285 Z-1.000000 I0.154314 J-0.423740
G01 X39.066348 Y-6.716285 Z-1.000000
G00 Z5.000000

(End cutting path id: text3472)


(Start cutting path id: text3472)
(Change tool to Cylindrical cutter)

G00 Z5.000000
G00 X40.616642 Y-5.707044

G01 Z-1.000000 F100.0(Penetrate)
G03 X40.378386 Y-5.674618 Z-1.000000 I-0.133678 J-0.090695 F400.000000
G03 X40.305325 Y-5.830926 Z-1.000000 I0.134144 J-0.157930
G03 X40.370174 Y-5.888688 Z-1.000000 I0.057746 J-0.000452
G03 X40.616642 Y-5.707044 Z-1.000000 I-0.038440 J0.310194
G01 X40.616642 Y-5.707044 Z-1.000000
G00 Z5.000000

(End cutting path id: text3472)


(Start cutting path id: text3472)
(Change tool to Cylindrical cutter)

G00 Z5.000000
G00 X40.926699 Y-7.257337

G01 Z-1.000000 F100.0(Penetrate)
G03 X40.630705 Y-7.063489 Z-1.000000 I-0.183916 J0.042077 F400.000000
G03 X40.665683 Y-7.412367 Z-1.000000 I0.121143 J-0.164047
G03 X40.824272 Y-7.400631 Z-1.000000 I0.053572 J0.353484
G03 X40.926699 Y-7.257337 Z-1.000000 I-0.042630 J0.138727
G01 X40.926699 Y-7.257337 Z-1.000000
G00 Z5.000000

(End cutting path id: text3472)


(Start cutting path id: text3472)
(Change tool to Cylindrical cutter)

G00 Z5.000000
G00 X41.081729 Y-7.257337

G01 Z-1.000000 F100.0(Penetrate)
G02 X38.600070 Y-6.108810 Z-1.000000 I-1.072480 J0.938022 F400.000000
G02 X40.700356 Y-5.899281 Z-1.000000 I1.076639 J-0.160830
G02 X40.934255 Y-6.091665 Z-1.000000 I-0.117660 J-0.381429
G02 X41.081729 Y-7.257337 Z-1.000000 I-1.440026 J-0.774348
G01 X41.081729 Y-7.257337 Z-1.000000
G00 Z5.000000

(End cutting path id: text3472)


(Start cutting path id: text3472)
(Change tool to Cylindrical cutter)

G00 Z5.000000
G00 X42.321964 Y-7.489881

G01 Z-1.000000 F100.0(Penetrate)
G02 X41.662577 Y-7.106381 Z-1.000000 I-0.200626 J0.413668 F400.000000
G03 X41.546817 Y-7.107224 Z-1.000000 I-0.057856 J-0.003805
G03 X42.239412 Y-6.908551 Z-1.000000 I0.320582 J0.188984
G01 X42.321964 Y-6.904702 Z-1.000000
G01 X42.321964 Y-7.489881 Z-1.000000
G01 X42.321964 Y-7.489881 Z-1.000000
G00 Z5.000000

(End cutting path id: text3472)


(Start cutting path id: text3472)
(Change tool to Cylindrical cutter)

G00 Z5.000000
G00 X43.407168 Y-7.257337

G01 Z-1.000000 F100.0(Penetrate)
G03 X43.115664 Y-7.062141 Z-1.000000 I-0.181533 J0.044163 F400.000000
G03 X43.146151 Y-7.412367 Z-1.000000 I0.120812 J-0.165923
G03 X43.304741 Y-7.400631 Z-1.000000 I0.053572 J0.353488
G03 X43.407168 Y-7.257337 Z-1.000000 I-0.042630 J0.138726
G01 X43.407168 Y-7.257337 Z-1.000000
G00 Z5.000000

(End cutting path id: text3472)


(Start cutting path id: text3472)
(Change tool to Cylindrical cutter)

G00 Z5.000000
G00 X43.562198 Y-7.257337

G01 Z-1.000000 F100.0(Penetrate)
G02 X42.479940 Y-6.376904 Z-1.000000 I-0.393346 J0.621877 F400.000000
G02 X43.360660 Y-5.596973 Z-1.000000 I1.176829 J-0.441675
G03 X43.232132 Y-5.856162 Z-1.000000 I-0.040587 J-0.141335
G02 X43.562198 Y-7.257337 Z-1.000000 I-0.669450 J-0.897161
G01 X43.562198 Y-7.257337 Z-1.000000
G00 Z5.000000

(End cutting path id: text3472)


(Start cutting path id: text3472)
(Change tool to Cylindrical cutter)

G00 Z5.000000
G00 X44.802432 Y-7.489881

G01 Z-1.000000 F100.0(Penetrate)
G03 X44.243958 Y-7.164789 Z-1.000000 I-0.399427 J-0.043929 F400.000000
G02 X43.872258 Y-6.882317 Z-1.000000 I-0.106101 J0.246177
G02 X44.244867 Y-6.455213 Z-1.000000 I0.365733 J0.057018
G03 X44.724917 Y-6.017103 Z-1.000000 I0.008778 J0.472438
G02 X44.819897 Y-6.720418 Z-1.000000 I-1.100450 J-0.506683
G03 X44.802437 Y-7.489881 Z-1.000000 I2.714691 J-0.446530
G01 X44.802432 Y-7.489881 Z-1.000000
G00 Z5.000000

(End cutting path id: text3472)


(Start cutting path id: text3472)
(Change tool to Cylindrical cutter)

G00 Z5.000000
G00 X45.870584 Y-7.257337

G01 Z-1.000000 F100.0(Penetrate)
G03 X45.578262 Y-7.061203 Z-1.000000 I-0.182197 J0.044358 F400.000000
G03 X45.608017 Y-7.412367 Z-1.000000 I0.120881 J-0.166600
G03 X45.767452 Y-7.401237 Z-1.000000 I0.055600 J0.351064
G03 X45.870584 Y-7.257337 Z-1.000000 I-0.042590 J0.139431
G01 X45.870584 Y-7.257337 Z-1.000000
G00 Z5.000000

(End cutting path id: text3472)


(Start cutting path id: text3472)
(Change tool to Cylindrical cutter)

G00 Z5.000000
G00 X46.186843 Y-7.491431

G01 Z-1.000000 F100.0(Penetrate)
G02 X44.843455 Y-6.660627 Z-1.000000 I-0.465448 J0.748897 F400.000000
G02 X46.025614 Y-6.297139 Z-1.000000 I0.666069 J-0.062141
G02 X46.011454 Y-6.909035 Z-1.000000 I-1.648873 J-0.267955
G03 X46.186843 Y-7.491431 Z-1.000000 I0.620874 J-0.130631
G01 X46.186843 Y-7.491431 Z-1.000000
G00 Z5.000000

(End cutting path id: text3472)


(Start cutting path id: text3472)
(Change tool to Cylindrical cutter)

G00 Z5.000000
G00 X46.430239 Y-6.869764

G01 Z-1.000000 F100.0(Penetrate)
G02 X46.470715 Y-6.988251 Z-1.000000 I-0.062262 J-0.087426 F400.000000
G01 X46.430241 Y-7.018298 Z-1.000000
G01 X46.389767 Y-6.988253 Z-1.000000
G02 X46.430239 Y-6.869764 Z-1.000000 I0.102739 J0.031064
G01 X46.430239 Y-6.869764 Z-1.000000
G00 Z5.000000

(End cutting path id: text3472)


(Start cutting path id: text3472)
(Change tool to Cylindrical cutter)

G00 Z5.000000
G00 X46.430239 Y-6.094617

G01 Z-1.000000 F100.0(Penetrate)
G02 X46.470715 Y-6.213104 Z-1.000000 I-0.062262 J-0.087426 F400.000000
G01 X46.430241 Y-6.243152 Z-1.000000
G01 X46.389767 Y-6.213106 Z-1.000000
G02 X46.430239 Y-6.094617 Z-1.000000 I0.102739 J0.031064
G01 X46.430239 Y-6.094617 Z-1.000000
G00 Z5.000000

(End cutting path id: text3472)


(Start cutting path id: text3472)
(Change tool to Cylindrical cutter)

G00 Z5.000000
G00 X48.592898 Y-7.567396

G01 Z-1.000000 F100.0(Penetrate)
G02 X47.969833 Y-5.940577 Z-1.000000 I-0.061811 J0.909052 F400.000000
G02 X48.187855 Y-6.172132 Z-1.000000 I0.098368 J-0.125799
G03 X47.780503 Y-7.326054 Z-1.000000 I0.250838 J-0.737411
G03 X48.592898 Y-7.567396 Z-1.000000 I0.544386 J0.344494
G01 X48.592898 Y-7.567396 Z-1.000000
G00 Z5.000000

(End cutting path id: text3472)


(Start cutting path id: text3472)
(Change tool to Cylindrical cutter)

G00 Z5.000000
G00 X49.910647 Y-7.489881

G01 Z-1.000000 F100.0(Penetrate)
G02 X49.251260 Y-7.106381 Z-1.000000 I-0.200626 J0.413667 F400.000000
G03 X49.135500 Y-7.107224 Z-1.000000 I-0.057856 J-0.003805
G03 X49.828094 Y-6.908551 Z-1.000000 I0.320581 J0.188984
G01 X49.910647 Y-6.904702 Z-1.000000
G01 X49.910647 Y-7.489881 Z-1.000000
G01 X49.910647 Y-7.489881 Z-1.000000
G00 Z5.000000

(End cutting path id: text3472)


(Start cutting path id: text3472)
(Change tool to Cylindrical cutter)

G00 Z5.000000
G00 X51.150882 Y-7.489881

G01 Z-1.000000 F100.0(Penetrate)
G03 X50.592408 Y-7.164789 Z-1.000000 I-0.399428 J-0.043929 F400.000000
G02 X50.220707 Y-6.882317 Z-1.000000 I-0.106101 J0.246177
G02 X50.593317 Y-6.455213 Z-1.000000 I0.365733 J0.057018
G03 X51.073367 Y-6.017103 Z-1.000000 I0.008779 J0.472438
G02 X51.168347 Y-6.720418 Z-1.000000 I-1.100456 J-0.506683
G03 X51.150887 Y-7.489881 Z-1.000000 I2.714702 J-0.446529
G01 X51.150882 Y-7.489881 Z-1.000000
G00 Z5.000000

(End cutting path id: text3472)


(Start cutting path id: text3472)
(Change tool to Cylindrical cutter)

G00 Z5.000000
G00 X52.081059 Y-6.172132

G01 Z-1.000000 F100.0(Penetrate)
G02 X51.811878 Y-6.298752 Z-1.000000 I-5.052152 J10.390921 F400.000000
G02 X51.460942 Y-6.094617 Z-1.000000 I-0.103040 J0.226581
G02 X53.006114 Y-6.863947 Z-1.000000 I0.594020 J-0.743308
G02 X52.701176 Y-6.882317 Z-1.000000 I-0.153275 J0.004193
G03 X52.249035 Y-6.889656 Z-1.000000 I-0.225677 J-0.027941
G02 X52.081059 Y-6.882317 Z-1.000000 I-0.083815 J0.007625
G01 X52.081059 Y-6.172132 Z-1.000000
G01 X52.081059 Y-6.172132 Z-1.000000
G00 Z5.000000

(End cutting path id: text3472)


(Start cutting path id: text3472)
(Change tool to Cylindrical cutter)

G00 Z5.000000
G00 X53.321293 Y-6.716285

G01 Z-1.000000 F100.0(Penetrate)
G03 X53.901456 Y-6.485224 Z-1.000000 I0.100178 J0.592354 F400.000000
G03 X53.882767 Y-6.284827 Z-1.000000 I-0.119471 J0.089928
G03 X53.613813 Y-6.231660 Z-1.000000 I-0.178385 J-0.195531
G03 X53.321293 Y-6.716285 Z-1.000000 I0.154314 J-0.423739
G01 X53.321293 Y-6.716285 Z-1.000000
G00 Z5.000000

(End cutting path id: text3472)


(Start cutting path id: text3472)
(Change tool to Cylindrical cutter)

G00 Z5.000000
G00 X53.321293 Y-6.869764

G01 Z-1.000000 F100.0(Penetrate)
G01 X53.342936 Y-6.847893 Z-1.000000 F400.000000
G02 X53.166263 Y-6.328722 Z-1.000000 I0.498505 J0.459286
G02 X53.769986 Y-6.370330 Z-1.000000 I0.291312 J-0.173877
G02 X53.321293 Y-6.869764 Z-1.000000 I-0.341410 J-0.144547
G01 X53.321293 Y-6.869764 Z-1.000000
G00 Z5.000000

(End cutting path id: text3472)


(Start cutting path id: text3472)
(Change tool to Cylindrical cutter)

G00 Z5.000000
G00 X55.026615 Y-6.172132

G01 Z-1.000000 F100.0(Penetrate)
G02 X54.757434 Y-6.298753 Z-1.000000 I-5.050578 J10.387505 F400.000000
G02 X54.406498 Y-6.094617 Z-1.000000 I-0.103040 J0.226581
G02 X55.951671 Y-6.863947 Z-1.000000 I0.594020 J-0.743309
G02 X55.646732 Y-6.882317 Z-1.000000 I-0.153276 J0.004193
G03 X55.194594 Y-6.889656 Z-1.000000 I-0.225675 J-0.027941
G02 X55.026615 Y-6.882317 Z-1.000000 I-0.083817 J0.007625
G01 X55.026615 Y-6.172132 Z-1.000000
G01 X55.026615 Y-6.172132 Z-1.000000
G00 Z5.000000

(End cutting path id: text3472)


(Start cutting path id: text3472)
(Change tool to Cylindrical cutter)

G00 Z5.000000
G00 X57.041996 Y-7.489881

G01 Z-1.000000 F100.0(Penetrate)
G02 X56.382609 Y-7.106381 Z-1.000000 I-0.200626 J0.413668 F400.000000
G03 X56.266849 Y-7.107224 Z-1.000000 I-0.057855 J-0.003805
G03 X56.959446 Y-6.908551 Z-1.000000 I0.320583 J0.188984
G01 X57.041996 Y-6.904702 Z-1.000000
G01 X57.041996 Y-7.489881 Z-1.000000
G01 X57.041996 Y-7.489881 Z-1.000000
G00 Z5.000000

(End cutting path id: text3472)


(Start cutting path id: text3472)
(Change tool to Cylindrical cutter)

G00 Z5.000000
G00 X58.282231 Y-7.489881

G01 Z-1.000000 F100.0(Penetrate)
G02 X57.603401 Y-6.504867 Z-1.000000 I6.246023 J5.030916 F400.000000
G03 X57.507084 Y-6.559705 Z-1.000000 I-0.047852 J-0.027958
G02 X57.894802 Y-6.707043 Z-1.000000 I-0.541861 J-2.009709
G02 X58.282231 Y-7.309745 Z-1.000000 I-0.312996 J-0.627075
G01 X58.282231 Y-7.489881 Z-1.000000
G00 Z5.000000

(End cutting path id: text3472)


(Start cutting path id: text3472)
(Change tool to Cylindrical cutter)

G00 Z5.000000
G00 X58.747318 Y-6.869764

G01 Z-1.000000 F100.0(Penetrate)
G01 X58.768961 Y-6.847893 Z-1.000000 F400.000000
G02 X58.592288 Y-6.328722 Z-1.000000 I0.498504 J0.459286
G02 X59.196010 Y-6.370331 Z-1.000000 I0.291311 J-0.173878
G02 X58.747318 Y-6.869764 Z-1.000000 I-0.341409 J-0.144547
G01 X58.747318 Y-6.869764 Z-1.000000
G00 Z5.000000

(End cutting path id: text3472)


(Start cutting path id: text3472)
(Change tool to Cylindrical cutter)

G00 Z5.000000
G00 X58.747318 Y-6.716285

G01 Z-1.000000 F100.0(Penetrate)
G03 X59.327481 Y-6.485224 Z-1.000000 I0.100178 J0.592354 F400.000000
G03 X59.308792 Y-6.284827 Z-1.000000 I-0.119471 J0.089928
G03 X59.039838 Y-6.231660 Z-1.000000 I-0.178385 J-0.195532
G03 X58.747318 Y-6.716285 Z-1.000000 I0.154313 J-0.423739
G01 X58.747318 Y-6.716285 Z-1.000000
G00 Z5.000000

(End cutting path id: text3472)


(Start cutting path id: text3472)
(Change tool to Cylindrical cutter)

G00 Z5.000000
G00 X60.685184 Y-7.567396

G01 Z-1.000000 F100.0(Penetrate)
G02 X60.062119 Y-5.940577 Z-1.000000 I-0.061810 J0.909052 F400.000000
G02 X60.280142 Y-6.172132 Z-1.000000 I0.098368 J-0.125799
G03 X59.872787 Y-7.326052 Z-1.000000 I0.250835 J-0.737411
G03 X60.685184 Y-7.567396 Z-1.000000 I0.544388 J0.344493
G01 X60.685184 Y-7.567396 Z-1.000000
G00 Z5.000000

(End cutting path id: text3472)


(Start cutting path id: text3472)
(Change tool to Cylindrical cutter)

G00 Z5.000000
G00 X62.007583 Y-6.100818

G01 Z-1.000000 F100.0(Penetrate)
G03 X61.687764 Y-6.795071 Z-1.000000 I2.268529 J-1.465825 F400.000000
G02 X61.229364 Y-6.986035 Z-1.000000 I-0.307116 J0.091550
G02 X59.130961 Y-6.928651 Z-1.000000 I-1.046628 J0.122781
G02 X61.365658 Y-6.603698 Z-1.000000 I1.130751 J0.070307
G03 X61.684853 Y-6.182036 Z-1.000000 I-0.134543 J0.433493
G02 X62.007583 Y-6.100818 Z-1.000000 I0.172718 J-0.004504
G01 X62.007583 Y-6.100818 Z-1.000000
G00 Z5.000000

(End cutting path id: text3472)


(Start cutting path id: text3472)
(Change tool to Cylindrical cutter)

G00 Z5.000000
G00 X63.088138 Y-7.257337

G01 Z-1.000000 F100.0(Penetrate)
G03 X62.791295 Y-7.062492 Z-1.000000 I-0.184599 J0.042306 F400.000000
G03 X62.825571 Y-7.412367 Z-1.000000 I0.121221 J-0.164741
G03 X62.985006 Y-7.401237 Z-1.000000 I0.055600 J0.351064
G03 X63.088138 Y-7.257337 Z-1.000000 I-0.042590 J0.139431
G01 X63.088138 Y-7.257337 Z-1.000000
G00 Z5.000000

(End cutting path id: text3472)


(Start cutting path id: text3472)
(Change tool to Cylindrical cutter)

G00 Z5.000000
G00 X63.243168 Y-7.257337

G01 Z-1.000000 F100.0(Penetrate)
G02 X62.391453 Y-6.725980 Z-1.000000 I-0.339660 J0.403844 F400.000000
G02 X63.243168 Y-6.732204 Z-1.000000 I0.425107 J-0.105861
G01 X63.243168 Y-7.257337 Z-1.000000
G01 X63.243168 Y-7.257337 Z-1.000000
G00 Z5.000000

(End cutting path id: text3472)


(Start cutting path id: text3472)
(Change tool to Cylindrical cutter)

G00 Z5.000000
G00 X63.708255 Y-6.869764

G01 Z-1.000000 F100.0(Penetrate)
G01 X63.729898 Y-6.847893 Z-1.000000 F400.000000
G02 X63.553225 Y-6.328722 Z-1.000000 I0.498504 J0.459287
G02 X64.156947 Y-6.370331 Z-1.000000 I0.291311 J-0.173878
G02 X63.708255 Y-6.869764 Z-1.000000 I-0.341409 J-0.144547
G01 X63.708255 Y-6.869764 Z-1.000000
G00 Z5.000000

(End cutting path id: text3472)


(Start cutting path id: text3472)
(Change tool to Cylindrical cutter)

G00 Z5.000000
G00 X63.708255 Y-6.716285

G01 Z-1.000000 F100.0(Penetrate)
G03 X64.288418 Y-6.485224 Z-1.000000 I0.100178 J0.592354 F400.000000
G03 X64.269729 Y-6.284827 Z-1.000000 I-0.119471 J0.089928
G03 X64.000775 Y-6.231660 Z-1.000000 I-0.178385 J-0.195532
G03 X63.708255 Y-6.716285 Z-1.000000 I0.154313 J-0.423739
G01 X63.708255 Y-6.716285 Z-1.000000
G00 Z5.000000

(End cutting path id: text3472)


(Start cutting path id: text3472)
(Change tool to Cylindrical cutter)

G00 Z5.000000
G00 X66.343754 Y-6.172132

G01 Z-1.000000 F100.0(Penetrate)
G02 X66.074573 Y-6.298752 Z-1.000000 I-5.052139 J10.390895 F400.000000
G02 X65.723637 Y-6.094617 Z-1.000000 I-0.103040 J0.226581
G02 X67.268809 Y-6.863947 Z-1.000000 I0.594020 J-0.743308
G02 X66.963871 Y-6.882317 Z-1.000000 I-0.153275 J0.004193
G03 X66.511730 Y-6.889656 Z-1.000000 I-0.225677 J-0.027941
G02 X66.343754 Y-6.882317 Z-1.000000 I-0.083815 J0.007625
G01 X66.343754 Y-6.172132 Z-1.000000
G01 X66.343754 Y-6.172132 Z-1.000000
G00 Z5.000000

(End cutting path id: text3472)


(Start cutting path id: text3472)
(Change tool to Cylindrical cutter)

G00 Z5.000000
G00 X67.583988 Y-6.716285

G01 Z-1.000000 F100.0(Penetrate)
G03 X68.164151 Y-6.485224 Z-1.000000 I0.100178 J0.592354 F400.000000
G03 X68.145462 Y-6.284827 Z-1.000000 I-0.119471 J0.089928
G03 X67.876508 Y-6.231660 Z-1.000000 I-0.178385 J-0.195531
G03 X67.583988 Y-6.716285 Z-1.000000 I0.154314 J-0.423739
G01 X67.583988 Y-6.716285 Z-1.000000
G00 Z5.000000

(End cutting path id: text3472)


(Start cutting path id: text3472)
(Change tool to Cylindrical cutter)

G00 Z5.000000
G00 X67.583988 Y-6.869764

G01 Z-1.000000 F100.0(Penetrate)
G01 X67.605631 Y-6.847893 Z-1.000000 F400.000000
G02 X67.428958 Y-6.328722 Z-1.000000 I0.498505 J0.459287
G02 X68.032681 Y-6.370330 Z-1.000000 I0.291312 J-0.173877
G02 X67.583988 Y-6.869764 Z-1.000000 I-0.341410 J-0.144547
G01 X67.583988 Y-6.869764 Z-1.000000
G00 Z5.000000

(End cutting path id: text3472)


(Start cutting path id: text3472)
(Change tool to Cylindrical cutter)

G00 Z5.000000
G00 X69.521855 Y-7.567396

G01 Z-1.000000 F100.0(Penetrate)
G02 X68.898786 Y-5.940575 Z-1.000000 I-0.061813 J0.909053 F400.000000
G02 X69.116812 Y-6.172132 Z-1.000000 I0.098369 J-0.125800
G03 X68.709449 Y-7.326051 Z-1.000000 I0.250829 J-0.737413
G03 X69.521855 Y-7.567396 Z-1.000000 I0.544391 J0.344492
G01 X69.521855 Y-7.567396 Z-1.000000
G00 Z5.000000

(End cutting path id: text3472)


(Start cutting path id: text3472)
(Change tool to Cylindrical cutter)

G00 Z5.000000
G00 X70.529544 Y-6.172132

G01 Z-1.000000 F100.0(Penetrate)
G02 X70.260363 Y-6.298753 Z-1.000000 I-5.050523 J10.387381 F400.000000
G02 X69.909427 Y-6.094617 Z-1.000000 I-0.103040 J0.226581
G02 X71.454600 Y-6.863947 Z-1.000000 I0.594020 J-0.743310
G02 X71.149662 Y-6.882317 Z-1.000000 I-0.153275 J0.004193
G03 X70.697523 Y-6.889656 Z-1.000000 I-0.225675 J-0.027941
G02 X70.529544 Y-6.882317 Z-1.000000 I-0.083817 J0.007625
G01 X70.529544 Y-6.172132 Z-1.000000
G01 X70.529544 Y-6.172132 Z-1.000000
G00 Z5.000000

(End cutting path id: text3472)


(Start cutting path id: text3472)
(Change tool to Cylindrical cutter)

G00 Z5.000000
G00 X72.544926 Y-7.489881

G01 Z-1.000000 F100.0(Penetrate)
G02 X71.885539 Y-7.106381 Z-1.000000 I-0.200626 J0.413668 F400.000000
G03 X71.769779 Y-7.107224 Z-1.000000 I-0.057855 J-0.003805
G03 X72.462375 Y-6.908551 Z-1.000000 I0.320583 J0.188984
G01 X72.544926 Y-6.904702 Z-1.000000
G01 X72.544926 Y-7.489881 Z-1.000000
G01 X72.544926 Y-7.489881 Z-1.000000
G00 Z5.000000

(End cutting path id: text3472)


(Start cutting path id: text3472)
(Change tool to Cylindrical cutter)

G00 Z5.000000
G00 X73.010013 Y-7.413917

G01 Z-1.000000 F100.0(Penetrate)
G03 X73.376084 Y-6.866778 Z-1.000000 I0.042998 J0.367264 F400.000000
G03 X73.010013 Y-6.982217 Z-1.000000 I-0.171182 J-0.095308
G01 X73.010013 Y-7.413917 Z-1.000000
G01 X73.010013 Y-7.413917 Z-1.000000
G00 Z5.000000

(End cutting path id: text3472)


(Start cutting path id: text3472)
(Change tool to Cylindrical cutter)

G00 Z5.000000
G00 X73.010013 Y-7.568946

G01 Z-1.000000 F100.0(Penetrate)
G02 X71.445496 Y-7.893627 Z-1.000000 I-0.809930 J-0.029001 F400.000000
G02 X73.476651 Y-6.017103 Z-1.000000 I1.382080 J0.541558
G02 X74.056975 Y-6.888074 Z-1.000000 I-0.343932 J-0.857979
G02 X73.010013 Y-7.568946 Z-1.000000 I-0.751749 J0.010567
G01 X73.010013 Y-7.568946 Z-1.000000
G00 Z5.000000

(End cutting path id: text3472)


(Start cutting path id: text3472)
(Change tool to Cylindrical cutter)

G00 Z5.000000
G00 X74.870365 Y-7.257337

G01 Z-1.000000 F100.0(Penetrate)
G03 X74.573521 Y-7.062492 Z-1.000000 I-0.184600 J0.042306 F400.000000
G03 X74.607797 Y-7.412367 Z-1.000000 I0.121222 J-0.164741
G03 X74.767232 Y-7.401237 Z-1.000000 I0.055600 J0.351065
G03 X74.870365 Y-7.257337 Z-1.000000 I-0.042590 J0.139432
G01 X74.870365 Y-7.257337 Z-1.000000
G00 Z5.000000

(End cutting path id: text3472)


(Start cutting path id: text3472)
(Change tool to Cylindrical cutter)

G00 Z5.000000
G00 X75.025395 Y-7.257337

G01 Z-1.000000 F100.0(Penetrate)
G02 X74.173681 Y-6.725980 Z-1.000000 I-0.339660 J0.403844 F400.000000
G02 X75.025395 Y-6.732204 Z-1.000000 I0.425106 J-0.105861
G01 X75.025395 Y-7.257337 Z-1.000000
G01 X75.025395 Y-7.257337 Z-1.000000
G00 Z5.000000

(End cutting path id: text3472)


(Start cutting path id: text3472)
(Change tool to Cylindrical cutter)

G00 Z5.000000
G00 X76.110599 Y-7.257337

G01 Z-1.000000 F100.0(Penetrate)
G03 X75.814604 Y-7.063488 Z-1.000000 I-0.183917 J0.042077 F400.000000
G03 X75.849582 Y-7.412367 Z-1.000000 I0.121143 J-0.164047
G03 X76.008172 Y-7.400631 Z-1.000000 I0.053570 J0.353499
G03 X76.110599 Y-7.257337 Z-1.000000 I-0.042629 J0.138726
G01 X76.110599 Y-7.257337 Z-1.000000
G00 Z5.000000

(End cutting path id: text3472)


(Start cutting path id: text3472)
(Change tool to Cylindrical cutter)

G00 Z5.000000
G00 X76.265629 Y-7.257337

G01 Z-1.000000 F100.0(Penetrate)
G02 X73.783980 Y-6.108815 Z-1.000000 I-1.072474 J0.938020 F400.000000
G02 X75.884256 Y-5.899281 Z-1.000000 I1.076635 J-0.160827
G02 X76.118144 Y-6.091662 Z-1.000000 I-0.117690 J-0.381447
G02 X76.265629 Y-7.257337 Z-1.000000 I-1.439956 J-0.774356
G01 X76.265629 Y-7.257337 Z-1.000000
G00 Z5.000000

(End cutting path id: text3472)


(Start cutting path id: text3472)
(Change tool to Cylindrical cutter)

G00 Z5.000000
G00 X77.333781 Y-7.257337

G01 Z-1.000000 F100.0(Penetrate)
G03 X77.041458 Y-7.061202 Z-1.000000 I-0.182198 J0.044359 F400.000000
G03 X77.071211 Y-7.412367 Z-1.000000 I0.120881 J-0.166601
G03 X77.230648 Y-7.401238 Z-1.000000 I0.055604 J0.351044
G03 X77.333781 Y-7.257337 Z-1.000000 I-0.042593 J0.139434
G01 X77.333781 Y-7.257337 Z-1.000000
G00 Z5.000000

(End cutting path id: text3472)


(Start cutting path id: text3472)
(Change tool to Cylindrical cutter)

G00 Z5.000000
G00 X77.650040 Y-7.491431

G01 Z-1.000000 F100.0(Penetrate)
G02 X76.306650 Y-6.660627 Z-1.000000 I-0.465449 J0.748897 F400.000000
G02 X77.488808 Y-6.297139 Z-1.000000 I0.666069 J-0.062140
G02 X77.474646 Y-6.909034 Z-1.000000 I-1.648892 J-0.267950
G03 X77.650040 Y-7.491431 Z-1.000000 I0.620867 J-0.130630
G01 X77.650040 Y-7.491431 Z-1.000000
G00 Z5.000000

(End cutting path id: text3472)


(Start cutting path id: text3472)
(Change tool to Cylindrical cutter)

G00 Z5.000000
G00 X78.746098 Y-7.489871

G01 Z-1.000000 F100.0(Penetrate)
G03 X78.187623 Y-7.164779 Z-1.000000 I-0.399428 J-0.043929 F400.000000
G02 X77.815921 Y-6.882307 Z-1.000000 I-0.106101 J0.246177
G02 X78.188532 Y-6.455202 Z-1.000000 I0.365733 J0.057018
G03 X78.668583 Y-6.017092 Z-1.000000 I0.008780 J0.472439
G02 X78.763563 Y-6.720407 Z-1.000000 I-1.100456 J-0.506683
G03 X78.746103 Y-7.489870 Z-1.000000 I2.714702 J-0.446529
G01 X78.746098 Y-7.489871 Z-1.000000
G00 Z5.000000

(End cutting path id: text3472)


(Start cutting path id: text3472)
(Change tool to Cylindrical cutter)

G00 Z5.000000
G00 X79.986332 Y-7.489871

G01 Z-1.000000 F100.0(Penetrate)
G02 X79.326944 Y-7.106370 Z-1.000000 I-0.200626 J0.413669 F400.000000
G03 X79.211185 Y-7.107213 Z-1.000000 I-0.057855 J-0.003804
G03 X79.903782 Y-6.908541 Z-1.000000 I0.320583 J0.188984
G01 X79.986332 Y-6.904692 Z-1.000000
G01 X79.986332 Y-7.489870 Z-1.000000
G01 X79.986332 Y-7.489871 Z-1.000000
G00 Z5.000000

(End cutting path id: text3472)


(Start cutting path id: text3472)
(Change tool to Cylindrical cutter)

G00 Z5.000000
G00 X80.451419 Y-6.869754

G01 Z-1.000000 F100.0(Penetrate)
G01 X80.473061 Y-6.847884 Z-1.000000 F400.000000
G02 X80.296389 Y-6.328723 Z-1.000000 I0.498497 J0.459282
G02 X80.900108 Y-6.370331 Z-1.000000 I0.291310 J-0.173876
G02 X80.451419 Y-6.869754 Z-1.000000 I-0.341403 J-0.144545
G01 X80.451419 Y-6.869754 Z-1.000000
G00 Z5.000000

(End cutting path id: text3472)


(Start cutting path id: text3472)
(Change tool to Cylindrical cutter)

G00 Z5.000000
G00 X80.451419 Y-6.716275

G01 Z-1.000000 F100.0(Penetrate)
G03 X81.031581 Y-6.485219 Z-1.000000 I0.100178 J0.592358 F400.000000
G03 X81.012893 Y-6.284827 Z-1.000000 I-0.119466 J0.089926
G03 X80.743939 Y-6.231659 Z-1.000000 I-0.178387 J-0.195536
G03 X80.451419 Y-6.716275 Z-1.000000 I0.154305 J-0.423733
G01 X80.451419 Y-6.716275 Z-1.000000
G00 Z5.000000

(End cutting path id: text3472)


(Start cutting path id: text3472)
(Change tool to Cylindrical cutter)

G00 Z5.000000
G00 X83.241945 Y-7.257328

G01 Z-1.000000 F100.0(Penetrate)
G03 X82.945103 Y-7.062483 Z-1.000000 I-0.184599 J0.042306 F400.000000
G03 X82.979378 Y-7.412357 Z-1.000000 I0.121221 J-0.164741
G03 X83.138814 Y-7.401228 Z-1.000000 I0.055603 J0.351043
G03 X83.241945 Y-7.257328 Z-1.000000 I-0.042592 J0.139431
G01 X83.241945 Y-7.257328 Z-1.000000
G00 Z5.000000

(End cutting path id: text3472)


(Start cutting path id: text3472)
(Change tool to Cylindrical cutter)

G00 Z5.000000
G00 X83.396975 Y-7.257328

G01 Z-1.000000 F100.0(Penetrate)
G02 X82.545257 Y-6.725970 Z-1.000000 I-0.339662 J0.403844 F400.000000
G02 X83.396975 Y-6.732194 Z-1.000000 I0.425108 J-0.105861
G01 X83.396975 Y-7.257328 Z-1.000000
G01 X83.396975 Y-7.257328 Z-1.000000
G00 Z5.000000

(End cutting path id: text3472)


(Start cutting path id: text3472)
(Change tool to Cylindrical cutter)

G00 Z5.000000
G00 X84.482180 Y-7.257328

G01 Z-1.000000 F100.0(Penetrate)
G03 X84.190676 Y-7.062131 Z-1.000000 I-0.181533 J0.044163 F400.000000
G03 X84.221163 Y-7.412357 Z-1.000000 I0.120812 J-0.165923
G03 X84.379752 Y-7.400622 Z-1.000000 I0.053572 J0.353486
G03 X84.482180 Y-7.257328 Z-1.000000 I-0.042630 J0.138728
G01 X84.482180 Y-7.257328 Z-1.000000
G00 Z5.000000

(End cutting path id: text3472)


(Start cutting path id: text3472)
(Change tool to Cylindrical cutter)

G00 Z5.000000
G00 X84.637210 Y-7.257328

G01 Z-1.000000 F100.0(Penetrate)
G02 X83.554951 Y-6.376893 Z-1.000000 I-0.393346 J0.621878 F400.000000
G02 X84.435671 Y-5.596963 Z-1.000000 I1.176829 J-0.441676
G03 X84.307144 Y-5.856150 Z-1.000000 I-0.040587 J-0.141335
G02 X84.637210 Y-7.257327 Z-1.000000 I-0.669450 J-0.897162
G01 X84.637210 Y-7.257328 Z-1.000000
G00 Z5.000000

(End cutting path id: text3472)


(Start cutting path id: text3472)
(Change tool to Cylindrical cutter)

G00 Z5.000000
G00 X85.877444 Y-7.489871

G01 Z-1.000000 F100.0(Penetrate)
G03 X85.318970 Y-7.164779 Z-1.000000 I-0.399428 J-0.043929 F400.000000
G02 X84.947269 Y-6.882308 Z-1.000000 I-0.106101 J0.246177
G02 X85.319879 Y-6.455203 Z-1.000000 I0.365733 J0.057018
G03 X85.799929 Y-6.017093 Z-1.000000 I0.008779 J0.472438
G02 X85.894908 Y-6.720409 Z-1.000000 I-1.100452 J-0.506681
G03 X85.877439 Y-7.489871 Z-1.000000 I2.714884 J-0.446566
G01 X85.877444 Y-7.489871 Z-1.000000
G00 Z5.000000

(End cutting path id: text3472)


(Start cutting path id: text3472)
(Change tool to Cylindrical cutter)

G00 Z5.000000
G00 X86.962648 Y-7.257328

G01 Z-1.000000 F100.0(Penetrate)
G03 X86.665806 Y-7.062483 Z-1.000000 I-0.184599 J0.042306 F400.000000
G03 X86.700081 Y-7.412357 Z-1.000000 I0.121221 J-0.164741
G03 X86.859517 Y-7.401228 Z-1.000000 I0.055603 J0.351043
G03 X86.962648 Y-7.257328 Z-1.000000 I-0.042592 J0.139431
G01 X86.962648 Y-7.257328 Z-1.000000
G00 Z5.000000

(End cutting path id: text3472)


(Start cutting path id: text3472)
(Change tool to Cylindrical cutter)

G00 Z5.000000
G00 X87.117678 Y-7.257328

G01 Z-1.000000 F100.0(Penetrate)
G02 X86.265960 Y-6.725970 Z-1.000000 I-0.339662 J0.403844 F400.000000
G02 X87.117678 Y-6.732194 Z-1.000000 I0.425108 J-0.105861
G01 X87.117678 Y-7.257328 Z-1.000000
G01 X87.117678 Y-7.257328 Z-1.000000
G00 Z5.000000

(End cutting path id: text3472)


(Start cutting path id: text3472)
(Change tool to Cylindrical cutter)

G00 Z5.000000
G00 X88.280398 Y-7.257328

G01 Z-1.000000 F100.0(Penetrate)
G02 X87.960179 Y-7.075212 Z-1.000000 I-0.075580 J0.239689 F400.000000
G03 X87.798253 Y-6.869775 Z-1.000000 I-0.301221 J-0.070889
G03 X87.974553 Y-6.553756 Z-1.000000 I-0.171745 J0.302999
G02 X88.280398 Y-6.327173 Z-1.000000 I0.230466 J0.008622
G02 X88.243200 Y-6.780391 Z-1.000000 I-18.925159 J1.325141
G03 X88.280398 Y-7.257328 Z-1.000000 I1.393696 J-0.131221
G01 X88.280398 Y-7.257328 Z-1.000000
G00 Z5.000000

(End cutting path id: text3472)


(Start cutting path id: text3472)
(Change tool to Cylindrical cutter)

G00 Z5.000000
G00 X89.520632 Y-7.489871

G01 Z-1.000000 F100.0(Penetrate)
G03 X88.962159 Y-7.164780 Z-1.000000 I-0.399427 J-0.043928 F400.000000
G02 X88.590458 Y-6.882308 Z-1.000000 I-0.106101 J0.246177
G02 X88.963068 Y-6.455203 Z-1.000000 I0.365733 J0.057018
G03 X89.443117 Y-6.017093 Z-1.000000 I0.008779 J0.472437
G02 X89.538097 Y-6.720408 Z-1.000000 I-1.100456 J-0.506683
G03 X89.520637 Y-7.489871 Z-1.000000 I2.714702 J-0.446529
G01 X89.520632 Y-7.489871 Z-1.000000
G00 Z5.000000

(End cutting path id: text3472)


(Start cutting path id: text3472)
(Change tool to Cylindrical cutter)

G00 Z5.000000
G00 X90.588784 Y-7.257328

G01 Z-1.000000 F100.0(Penetrate)
G03 X90.296453 Y-7.061194 Z-1.000000 I-0.182200 J0.044358 F400.000000
G03 X90.326217 Y-7.412378 Z-1.000000 I0.120894 J-0.166607
G03 X90.485660 Y-7.401246 Z-1.000000 I0.055602 J0.351029
G03 X90.588784 Y-7.257328 Z-1.000000 I-0.042596 J0.139428
G01 X90.588784 Y-7.257328 Z-1.000000
G00 Z5.000000

(End cutting path id: text3472)


(Start cutting path id: text3472)
(Change tool to Cylindrical cutter)

G00 Z5.000000
G00 X90.905043 Y-7.491422

G01 Z-1.000000 F100.0(Penetrate)
G02 X89.561655 Y-6.660619 Z-1.000000 I-0.465448 J0.748896 F400.000000
G02 X90.743814 Y-6.297129 Z-1.000000 I0.666069 J-0.062140
G02 X90.729654 Y-6.909025 Z-1.000000 I-1.648872 J-0.267955
G03 X90.905043 Y-7.491422 Z-1.000000 I0.620874 J-0.130631
G01 X90.905043 Y-7.491422 Z-1.000000
G00 Z5.000000

(End cutting path id: text3472)


(Start cutting path id: text3472)
(Change tool to Cylindrical cutter)

G00 Z5.000000
G00 X92.001101 Y-7.489862

G01 Z-1.000000 F100.0(Penetrate)
G02 X91.322295 Y-6.504833 Z-1.000000 I6.248793 J5.032587 F400.000000
G03 X91.225956 Y-6.559684 Z-1.000000 I-0.047863 J-0.027965
G02 X91.613674 Y-6.707022 Z-1.000000 I-0.541846 J-2.009660
G02 X92.001101 Y-7.309724 Z-1.000000 I-0.312999 J-0.627075
G01 X92.001101 Y-7.489862 Z-1.000000
G00 Z5.000000

(End cutting path id: text3472)


(Start cutting path id: text3472)
(Change tool to Cylindrical cutter)

G00 Z5.000000
G00 X93.241335 Y-7.489862

G01 Z-1.000000 F100.0(Penetrate)
G03 X92.682862 Y-7.164769 Z-1.000000 I-0.399428 J-0.043928 F400.000000
G02 X92.311161 Y-6.882296 Z-1.000000 I-0.106101 J0.246178
G02 X92.683771 Y-6.455192 Z-1.000000 I0.365733 J0.057018
G03 X93.163820 Y-6.017082 Z-1.000000 I0.008779 J0.472437
G02 X93.258800 Y-6.720396 Z-1.000000 I-1.100456 J-0.506683
G03 X93.241340 Y-7.489860 Z-1.000000 I2.714703 J-0.446529
G01 X93.241335 Y-7.489862 Z-1.000000
G00 Z5.000000

(End cutting path id: text3472)


(Start cutting path id: text3472)
(Change tool to Cylindrical cutter)

G00 Z5.000000
G00 X94.326542 Y-7.257316

G01 Z-1.000000 F100.0(Penetrate)
G03 X94.029698 Y-7.062470 Z-1.000000 I-0.184601 J0.042306 F400.000000
G03 X94.063972 Y-7.412345 Z-1.000000 I0.121222 J-0.164742
G03 X94.223409 Y-7.401217 Z-1.000000 I0.055604 J0.351044
G03 X94.326542 Y-7.257316 Z-1.000000 I-0.042593 J0.139434
G01 X94.326542 Y-7.257316 Z-1.000000
G00 Z5.000000

(End cutting path id: text3472)


(Start cutting path id: text3472)
(Change tool to Cylindrical cutter)

G00 Z5.000000
G00 X94.481569 Y-7.257316

G01 Z-1.000000 F100.0(Penetrate)
G02 X93.629851 Y-6.725958 Z-1.000000 I-0.339662 J0.403844 F400.000000
G02 X94.481569 Y-6.732183 Z-1.000000 I0.425108 J-0.105861
G01 X94.481569 Y-7.257316 Z-1.000000
G01 X94.481569 Y-7.257316 Z-1.000000
G00 Z5.000000

(End cutting path id: text3472)


(Start cutting path id: text3472)
(Change tool to Cylindrical cutter)

G00 Z5.000000
G00 X93.481632 Y-10.140838

G01 Z-1.000000 F100.0(Penetrate)
G02 X93.212451 Y-10.267458 Z-1.000000 I-5.052327 J10.391298 F400.000000
G02 X92.861515 Y-10.063323 Z-1.000000 I-0.103040 J0.226581
G02 X94.406688 Y-10.832653 Z-1.000000 I0.594021 J-0.743308
G02 X94.101749 Y-10.851023 Z-1.000000 I-0.153275 J0.004193
G03 X93.649608 Y-10.858362 Z-1.000000 I-0.225677 J-0.027942
G02 X93.481632 Y-10.851023 Z-1.000000 I-0.083815 J0.007625
G01 X93.481632 Y-10.140838 Z-1.000000
G01 X93.481632 Y-10.140838 Z-1.000000
G00 Z5.000000

(End cutting path id: text3472)


(Start cutting path id: text3472)
(Change tool to Cylindrical cutter)

G00 Z5.000000
G00 X92.473940 Y-11.536102

G01 Z-1.000000 F100.0(Penetrate)
G02 X91.850875 Y-9.909282 Z-1.000000 I-0.061811 J0.909052 F400.000000
G02 X92.068898 Y-10.140838 Z-1.000000 I0.098368 J-0.125799
G03 X91.661545 Y-11.294758 Z-1.000000 I0.250838 J-0.737411
G03 X92.473940 Y-11.536102 Z-1.000000 I0.544388 J0.344493
G01 X92.473940 Y-11.536102 Z-1.000000
G00 Z5.000000

(End cutting path id: text3472)


(Start cutting path id: text3472)
(Change tool to Cylindrical cutter)

G00 Z5.000000
G00 X91.311221 Y-11.226043

G01 Z-1.000000 F100.0(Penetrate)
G02 X90.459504 Y-10.694686 Z-1.000000 I-0.339662 J0.403844 F400.000000
G02 X91.311221 Y-10.700910 Z-1.000000 I0.425108 J-0.105861
G01 X91.311221 Y-11.226043 Z-1.000000
G01 X91.311221 Y-11.226043 Z-1.000000
G00 Z5.000000

(End cutting path id: text3472)


(Start cutting path id: text3472)
(Change tool to Cylindrical cutter)

G00 Z5.000000
G00 X91.156191 Y-11.226043

G01 Z-1.000000 F100.0(Penetrate)
G03 X90.859349 Y-11.031198 Z-1.000000 I-0.184599 J0.042306 F400.000000
G03 X90.893624 Y-11.381073 Z-1.000000 I0.121221 J-0.164741
G03 X91.053061 Y-11.369943 Z-1.000000 I0.055601 J0.351047
G03 X91.156191 Y-11.226043 Z-1.000000 I-0.042592 J0.139430
G01 X91.156191 Y-11.226043 Z-1.000000
G00 Z5.000000

(End cutting path id: text3472)


(Start cutting path id: text3472)
(Change tool to Cylindrical cutter)

G00 Z5.000000
G00 X90.070986 Y-11.458587

G01 Z-1.000000 F100.0(Penetrate)
G03 X89.512513 Y-11.133495 Z-1.000000 I-0.399427 J-0.043929 F400.000000
G02 X89.140812 Y-10.851023 Z-1.000000 I-0.106101 J0.246177
G02 X89.513422 Y-10.423919 Z-1.000000 I0.365733 J0.057018
G03 X89.993472 Y-9.985809 Z-1.000000 I0.008779 J0.472439
G02 X90.088451 Y-10.689124 Z-1.000000 I-1.100452 J-0.506681
G03 X90.070982 Y-11.458587 Z-1.000000 I2.714887 J-0.446566
G01 X90.070986 Y-11.458587 Z-1.000000
G00 Z5.000000

(End cutting path id: text3472)


(Start cutting path id: text3472)
(Change tool to Cylindrical cutter)

G00 Z5.000000
G00 X88.753237 Y-11.536107

G01 Z-1.000000 F100.0(Penetrate)
G02 X88.130172 Y-9.909288 Z-1.000000 I-0.061811 J0.909052 F400.000000
G02 X88.348194 Y-10.140843 Z-1.000000 I0.098368 J-0.125799
G03 X87.940841 Y-11.294762 Z-1.000000 I0.250838 J-0.737411
G03 X88.753237 Y-11.536107 Z-1.000000 I0.544389 J0.344493
G01 X88.753237 Y-11.536107 Z-1.000000
G00 Z5.000000

(End cutting path id: text3472)


(Start cutting path id: text3472)
(Change tool to Cylindrical cutter)

G00 Z5.000000
G00 X87.592068 Y-11.458592

G01 Z-1.000000 F100.0(Penetrate)
G03 X86.747299 Y-11.276195 Z-1.000000 I-0.435732 J0.029380 F400.000000
G02 X86.610162 Y-11.242832 Z-1.000000 I-0.066568 J0.024903
G02 X86.756366 Y-10.172336 Z-1.000000 I0.982224 J0.411084
G02 X87.592068 Y-10.455828 Z-1.000000 I0.367583 J-0.289931
G01 X87.592068 Y-11.458592 Z-1.000000
G01 X87.592068 Y-11.458592 Z-1.000000
G00 Z5.000000

(End cutting path id: text3472)


(Start cutting path id: text3472)
(Change tool to Cylindrical cutter)

G00 Z5.000000
G00 X87.437038 Y-10.449351

G01 Z-1.000000 F100.0(Penetrate)
G03 X87.149837 Y-9.625011 Z-1.000000 I-0.789306 J0.187206 F400.000000
G03 X86.849863 Y-9.636890 Z-1.000000 I-0.143035 J-0.181501
G03 X86.757982 Y-9.996341 Z-1.000000 I0.232027 J-0.250778
G03 X87.437038 Y-10.449351 Z-1.000000 I0.632116 J0.212080
G01 X87.437038 Y-10.449351 Z-1.000000
G00 Z5.000000

(End cutting path id: text3472)


(Start cutting path id: text3472)
(Change tool to Cylindrical cutter)

G00 Z5.000000
G00 X85.187564 Y-11.381082

G01 Z-1.000000 F100.0(Penetrate)
G02 X85.228039 Y-11.499569 Z-1.000000 I-0.062263 J-0.087425 F400.000000
G01 X85.187564 Y-11.529616 Z-1.000000
G01 X85.147089 Y-11.499569 Z-1.000000
G02 X85.187564 Y-11.381082 Z-1.000000 I0.102737 J0.031062
G01 X85.187564 Y-11.381082 Z-1.000000
G00 Z5.000000

(End cutting path id: text3472)


(Start cutting path id: text3472)
(Change tool to Cylindrical cutter)

G00 Z5.000000
G00 X84.799992 Y-11.458592

G01 Z-1.000000 F100.0(Penetrate)
G02 X84.140629 Y-11.075129 Z-1.000000 I-0.200625 J0.413644 F400.000000
G03 X84.024845 Y-11.075974 Z-1.000000 I-0.057867 J-0.003807
G03 X84.717443 Y-10.877301 Z-1.000000 I0.320583 J0.188984
G01 X84.799992 Y-10.873452 Z-1.000000
G01 X84.799992 Y-11.458631 Z-1.000000
G01 X84.799992 Y-11.458592 Z-1.000000
G00 Z5.000000

(End cutting path id: text3472)


(Start cutting path id: text3472)
(Change tool to Cylindrical cutter)

G00 Z5.000000
G00 X83.559757 Y-11.458592

G01 Z-1.000000 F100.0(Penetrate)
G02 X82.880921 Y-10.473581 Z-1.000000 I6.245447 J5.030570 F400.000000
G03 X82.784610 Y-10.528416 Z-1.000000 I-0.047849 J-0.027956
G02 X83.172329 Y-10.675754 Z-1.000000 I-0.541857 J-2.009699
G02 X83.559757 Y-11.278456 Z-1.000000 I-0.312997 J-0.627075
G01 X83.559757 Y-11.458592 Z-1.000000
G00 Z5.000000

(End cutting path id: text3472)


(Start cutting path id: text3472)
(Change tool to Cylindrical cutter)

G00 Z5.000000
G00 X82.463700 Y-11.460192

G01 Z-1.000000 F100.0(Penetrate)
G02 X81.120310 Y-10.629388 Z-1.000000 I-0.465449 J0.748897 F400.000000
G02 X82.302468 Y-10.265899 Z-1.000000 I0.666069 J-0.062140
G02 X82.288306 Y-10.877795 Z-1.000000 I-1.648888 J-0.267950
G03 X82.463700 Y-11.460192 Z-1.000000 I0.620867 J-0.130630
G01 X82.463700 Y-11.460192 Z-1.000000
G00 Z5.000000

(End cutting path id: text3472)


(Start cutting path id: text3472)
(Change tool to Cylindrical cutter)

G00 Z5.000000
G00 X82.147441 Y-11.226098

G01 Z-1.000000 F100.0(Penetrate)
G03 X81.855118 Y-11.029962 Z-1.000000 I-0.182198 J0.044359 F400.000000
G03 X81.884871 Y-11.381127 Z-1.000000 I0.120881 J-0.166601
G03 X82.044310 Y-11.369997 Z-1.000000 I0.055601 J0.351052
G03 X82.147441 Y-11.226098 Z-1.000000 I-0.042593 J0.139432
G01 X82.147441 Y-11.226098 Z-1.000000
G00 Z5.000000

(End cutting path id: text3472)


(Start cutting path id: text3472)
(Change tool to Cylindrical cutter)

G00 Z5.000000
G00 X81.079289 Y-11.226098

G01 Z-1.000000 F100.0(Penetrate)
G02 X79.997032 Y-10.345661 Z-1.000000 I-0.393344 J0.621879 F400.000000
G02 X80.877750 Y-9.565734 Z-1.000000 I1.176826 J-0.441678
G03 X80.749222 Y-9.824923 Z-1.000000 I-0.040587 J-0.141336
G02 X81.079289 Y-11.226098 Z-1.000000 I-0.669449 J-0.897162
G01 X81.079289 Y-11.226098 Z-1.000000
G00 Z5.000000

(End cutting path id: text3472)


(Start cutting path id: text3472)
(Change tool to Cylindrical cutter)

G00 Z5.000000
G00 X80.924259 Y-11.226098

G01 Z-1.000000 F100.0(Penetrate)
G03 X80.632754 Y-11.030902 Z-1.000000 I-0.181534 J0.044163 F400.000000
G03 X80.663242 Y-11.381127 Z-1.000000 I0.120812 J-0.165923
G03 X80.821833 Y-11.369392 Z-1.000000 I0.053572 J0.353487
G03 X80.924259 Y-11.226098 Z-1.000000 I-0.042630 J0.138726
G01 X80.924259 Y-11.226098 Z-1.000000
G00 Z5.000000

(End cutting path id: text3472)


(Start cutting path id: text3472)
(Change tool to Cylindrical cutter)

G00 Z5.000000
G00 X79.983231 Y-11.460192

G01 Z-1.000000 F100.0(Penetrate)
G02 X78.639841 Y-10.629388 Z-1.000000 I-0.465449 J0.748897 F400.000000
G02 X79.821999 Y-10.265899 Z-1.000000 I0.666069 J-0.062140
G02 X79.807838 Y-10.877795 Z-1.000000 I-1.648855 J-0.267953
G03 X79.983231 Y-11.460192 Z-1.000000 I0.620865 J-0.130631
G01 X79.983231 Y-11.460192 Z-1.000000
G00 Z5.000000

(End cutting path id: text3472)


(Start cutting path id: text3472)
(Change tool to Cylindrical cutter)

G00 Z5.000000
G00 X79.666972 Y-11.226098

G01 Z-1.000000 F100.0(Penetrate)
G03 X79.374649 Y-11.029962 Z-1.000000 I-0.182198 J0.044359 F400.000000
G03 X79.404402 Y-11.381127 Z-1.000000 I0.120881 J-0.166601
G03 X79.563841 Y-11.369997 Z-1.000000 I0.055601 J0.351052
G03 X79.666972 Y-11.226098 Z-1.000000 I-0.042593 J0.139432
G01 X79.666972 Y-11.226098 Z-1.000000
G00 Z5.000000

(End cutting path id: text3472)


(Start cutting path id: text3472)
(Change tool to Cylindrical cutter)

G00 Z5.000000
G00 X78.598820 Y-11.226098

G01 Z-1.000000 F100.0(Penetrate)
G02 X78.278600 Y-11.043974 Z-1.000000 I-0.075580 J0.239687 F400.000000
G03 X78.116672 Y-10.838524 Z-1.000000 I-0.301228 J-0.070879
G03 X78.292973 Y-10.522505 Z-1.000000 I-0.171745 J0.303001
G02 X78.598820 Y-10.295922 Z-1.000000 I0.230468 J0.008620
G02 X78.561622 Y-10.749150 Z-1.000000 I-18.968493 J1.328669
G03 X78.598820 Y-11.226098 Z-1.000000 I1.393967 J-0.131206
G01 X78.598820 Y-11.226098 Z-1.000000
G00 Z5.000000

(End cutting path id: text3472)


(Start cutting path id: text3472)
(Change tool to Cylindrical cutter)

G00 Z5.000000
G00 X77.059379 Y-10.759459

G01 Z-1.000000 F100.0(Penetrate)
G02 X76.607598 Y-11.252531 Z-1.000000 I-0.247798 J-0.226463 F400.000000
G01 X76.613678 Y-11.244458 Z-1.000000
G02 X76.933303 Y-10.452920 Z-1.000000 I1.459240 J-0.128943
G02 X77.355482 Y-9.985863 Z-1.000000 I4.410892 J-3.562732
G02 X77.326956 Y-10.366677 Z-1.000000 I-0.124793 J-0.182127
G03 X77.059379 Y-10.759459 Z-1.000000 I0.207956 J-0.429199
G01 X77.059379 Y-10.759459 Z-1.000000
G00 Z5.000000

(End cutting path id: text3472)


(Start cutting path id: text3472)
(Change tool to Cylindrical cutter)

G00 Z5.000000
G00 X75.420719 Y-11.382677

G01 Z-1.000000 F100.0(Penetrate)
G03 X75.786789 Y-10.835539 Z-1.000000 I0.042998 J0.367263 F400.000000
G03 X75.420719 Y-10.950978 Z-1.000000 I-0.171182 J-0.095308
G01 X75.420719 Y-11.382677 Z-1.000000
G01 X75.420719 Y-11.382677 Z-1.000000
G00 Z5.000000

(End cutting path id: text3472)


(Start cutting path id: text3472)
(Change tool to Cylindrical cutter)

G00 Z5.000000
G00 X75.420719 Y-11.537706

G01 Z-1.000000 F100.0(Penetrate)
G02 X73.856203 Y-11.862387 Z-1.000000 I-0.809930 J-0.029001 F400.000000
G02 X75.887357 Y-9.985863 Z-1.000000 I1.382080 J0.541558
G02 X76.467680 Y-10.856833 Z-1.000000 I-0.343936 J-0.857981
G02 X75.420719 Y-11.537706 Z-1.000000 I-0.751748 J0.010564
G01 X75.420719 Y-11.537706 Z-1.000000
G00 Z5.000000

(End cutting path id: text3472)


(Start cutting path id: text3472)
(Change tool to Cylindrical cutter)

G00 Z5.000000
G00 X74.180485 Y-10.838524

G01 Z-1.000000 F100.0(Penetrate)
G01 X74.202129 Y-10.816653 Z-1.000000 F400.000000
G02 X74.025455 Y-10.297472 Z-1.000000 I0.498510 J0.459290
G02 X74.629181 Y-10.339081 Z-1.000000 I0.291313 J-0.173879
G02 X74.180485 Y-10.838524 Z-1.000000 I-0.341415 J-0.144549
G01 X74.180485 Y-10.838524 Z-1.000000
G00 Z5.000000

(End cutting path id: text3472)


(Start cutting path id: text3472)
(Change tool to Cylindrical cutter)

G00 Z5.000000
G00 X74.180485 Y-10.685045

G01 Z-1.000000 F100.0(Penetrate)
G03 X74.760648 Y-10.453980 Z-1.000000 I0.100177 J0.592348 F400.000000
G03 X74.741958 Y-10.253579 Z-1.000000 I-0.119476 J0.089929
G03 X74.473005 Y-10.200413 Z-1.000000 I-0.178382 J-0.195526
G03 X74.180485 Y-10.685045 Z-1.000000 I0.154321 J-0.423745
G01 X74.180485 Y-10.685045 Z-1.000000
G00 Z5.000000

(End cutting path id: text3472)


(Start cutting path id: text3472)
(Change tool to Cylindrical cutter)

G00 Z5.000000
G00 X73.715395 Y-11.226094

G01 Z-1.000000 F100.0(Penetrate)
G02 X71.233743 Y-10.077572 Z-1.000000 I-1.072477 J0.938020 F400.000000
G02 X73.334024 Y-9.868037 Z-1.000000 I1.076638 J-0.160827
G02 X73.567916 Y-10.060421 Z-1.000000 I-0.117680 J-0.381440
G02 X73.715395 Y-11.226094 Z-1.000000 I-1.439994 J-0.774352
G01 X73.715395 Y-11.226094 Z-1.000000
G00 Z5.000000

(End cutting path id: text3472)


(Start cutting path id: text3472)
(Change tool to Cylindrical cutter)

G00 Z5.000000
G00 X73.560368 Y-11.226098

G01 Z-1.000000 F100.0(Penetrate)
G03 X73.264371 Y-11.032247 Z-1.000000 I-0.183919 J0.042078 F400.000000
G03 X73.299348 Y-11.381127 Z-1.000000 I0.121143 J-0.164048
G03 X73.457936 Y-11.369394 Z-1.000000 I0.053574 J0.353504
G03 X73.560368 Y-11.226098 Z-1.000000 I-0.042626 J0.138729
G01 X73.560368 Y-11.226098 Z-1.000000
G00 Z5.000000

(End cutting path id: text3472)


(Start cutting path id: text3472)
(Change tool to Cylindrical cutter)

G00 Z5.000000
G00 X72.397648 Y-11.536152

G01 Z-1.000000 F100.0(Penetrate)
G02 X71.774579 Y-9.909330 Z-1.000000 I-0.061813 J0.909054 F400.000000
G02 X71.992606 Y-10.140889 Z-1.000000 I0.098370 J-0.125801
G03 X71.585243 Y-11.294808 Z-1.000000 I0.250829 J-0.737414
G03 X72.397648 Y-11.536152 Z-1.000000 I0.544390 J0.344492
G01 X72.397648 Y-11.536152 Z-1.000000
G00 Z5.000000

(End cutting path id: text3472)


(Start cutting path id: text3472)
(Change tool to Cylindrical cutter)

G00 Z5.000000
G00 X73.250308 Y-9.675805

G01 Z-1.000000 F100.0(Penetrate)
G03 X73.012054 Y-9.643379 Z-1.000000 I-0.133677 J-0.090694 F400.000000
G03 X72.938994 Y-9.799687 Z-1.000000 I0.134145 J-0.157930
G03 X73.003842 Y-9.857448 Z-1.000000 I0.057746 J-0.000452
G03 X73.250308 Y-9.675805 Z-1.000000 I-0.038441 J0.310191
G01 X73.250308 Y-9.675805 Z-1.000000
G00 Z5.000000

(End cutting path id: text3472)


(Start cutting path id: text3472)
(Change tool to Cylindrical cutter)

G00 Z5.000000
G00 X70.149722 Y-10.683495

G01 Z-1.000000 F100.0(Penetrate)
G03 X69.875651 Y-10.170727 Z-1.000000 I-0.493487 J0.065864 F400.000000
G03 X69.639551 Y-10.208118 Z-1.000000 I-0.091497 J-0.186361
G03 X69.610836 Y-10.425191 Z-1.000000 I0.122991 J-0.126705
G03 X70.149722 Y-10.683495 Z-1.000000 I0.463767 J0.276255
G01 X70.149722 Y-10.683495 Z-1.000000
G00 Z5.000000

(End cutting path id: text3472)


(Start cutting path id: text3472)
(Change tool to Cylindrical cutter)

G00 Z5.000000
G00 X70.304752 Y-11.458642

G01 Z-1.000000 F100.0(Penetrate)
G03 X69.940335 Y-11.145431 Z-1.000000 I-0.298459 J0.021350 F400.000000
G02 X69.707886 Y-10.838524 Z-1.000000 I-0.046597 J0.206188
G02 X69.917558 Y-10.548952 Z-1.000000 I0.146259 J0.114793
G02 X70.304752 Y-11.458642 Z-1.000000 I-0.230518 J-0.635363
G01 X70.304752 Y-11.458642 Z-1.000000
G00 Z5.000000

(End cutting path id: text3472)


(Start cutting path id: text3472)
(Change tool to Cylindrical cutter)

G00 Z5.000000
G00 X69.064517 Y-11.458642

G01 Z-1.000000 F100.0(Penetrate)
G02 X68.405130 Y-11.075141 Z-1.000000 I-0.200626 J0.413668 F400.000000
G03 X68.289370 Y-11.075984 Z-1.000000 I-0.057855 J-0.003805
G03 X68.981966 Y-10.877312 Z-1.000000 I0.320582 J0.188984
G01 X69.064517 Y-10.873463 Z-1.000000
G01 X69.064517 Y-11.458642 Z-1.000000
G01 X69.064517 Y-11.458642 Z-1.000000
G00 Z5.000000

(End cutting path id: text3472)


(Start cutting path id: text3472)
(Change tool to Cylindrical cutter)

G00 Z5.000000
G00 X67.824283 Y-11.458642

G01 Z-1.000000 F100.0(Penetrate)
G03 X67.265808 Y-11.133550 Z-1.000000 I-0.399428 J-0.043929 F400.000000
G02 X66.894106 Y-10.851078 Z-1.000000 I-0.106102 J0.246177
G02 X67.266717 Y-10.423973 Z-1.000000 I0.365733 J0.057018
G03 X67.746768 Y-9.985863 Z-1.000000 I0.008780 J0.472438
G02 X67.841747 Y-10.689179 Z-1.000000 I-1.100452 J-0.506681
G03 X67.824278 Y-11.458642 Z-1.000000 I2.714887 J-0.446566
G01 X67.824283 Y-11.458642 Z-1.000000
G00 Z5.000000

(End cutting path id: text3472)


(Start cutting path id: text3472)
(Change tool to Cylindrical cutter)

G00 Z5.000000
G00 X65.808902 Y-10.838524

G01 Z-1.000000 F100.0(Penetrate)
G01 X65.830546 Y-10.816653 Z-1.000000 F400.000000
G02 X65.653872 Y-10.297472 Z-1.000000 I0.498510 J0.459290
G02 X66.257597 Y-10.339082 Z-1.000000 I0.291312 J-0.173880
G02 X65.808902 Y-10.838524 Z-1.000000 I-0.341415 J-0.144549
G01 X65.808902 Y-10.838524 Z-1.000000
G00 Z5.000000

(End cutting path id: text3472)


(Start cutting path id: text3472)
(Change tool to Cylindrical cutter)

G00 Z5.000000
G00 X65.808902 Y-10.685045

G01 Z-1.000000 F100.0(Penetrate)
G03 X66.389065 Y-10.453980 Z-1.000000 I0.100177 J0.592348 F400.000000
G03 X66.370374 Y-10.253579 Z-1.000000 I-0.119476 J0.089929
G03 X66.101422 Y-10.200413 Z-1.000000 I-0.178382 J-0.195526
G03 X65.808902 Y-10.685045 Z-1.000000 I0.154321 J-0.423745
G01 X65.808902 Y-10.685045 Z-1.000000
G00 Z5.000000

(End cutting path id: text3472)


(Start cutting path id: text3472)
(Change tool to Cylindrical cutter)

G00 Z5.000000
G00 X65.343814 Y-11.458642

G01 Z-1.000000 F100.0(Penetrate)
G03 X64.785339 Y-11.133550 Z-1.000000 I-0.399428 J-0.043929 F400.000000
G02 X64.413637 Y-10.851078 Z-1.000000 I-0.106102 J0.246177
G02 X64.786248 Y-10.423973 Z-1.000000 I0.365733 J0.057018
G03 X65.266299 Y-9.985863 Z-1.000000 I0.008780 J0.472438
G02 X65.361278 Y-10.689179 Z-1.000000 I-1.100452 J-0.506681
G03 X65.343809 Y-11.458642 Z-1.000000 I2.714887 J-0.446566
G01 X65.343814 Y-11.458642 Z-1.000000
G00 Z5.000000

(End cutting path id: text3472)


(Start cutting path id: text3472)
(Change tool to Cylindrical cutter)

G00 Z5.000000
G00 X64.103580 Y-11.458642

G01 Z-1.000000 F100.0(Penetrate)
G03 X63.786092 Y-11.140382 Z-1.000000 I-0.354156 J-0.035808 F400.000000
G03 X63.252468 Y-11.536152 Z-1.000000 I-0.050674 J-0.489309
G02 X63.444169 Y-10.538759 Z-1.000000 I0.783486 J0.366532
G02 X64.103596 Y-10.873459 Z-1.000000 I0.269068 J-0.286835
G01 X64.103580 Y-11.458638 Z-1.000000
G01 X64.103580 Y-11.458642 Z-1.000000
G00 Z5.000000

(End cutting path id: text3472)


(Start cutting path id: text3472)
(Change tool to Cylindrical cutter)

G00 Z5.000000
G00 X62.863346 Y-11.226098

G01 Z-1.000000 F100.0(Penetrate)
G02 X62.011629 Y-10.694740 Z-1.000000 I-0.339661 J0.403845 F400.000000
G02 X62.863346 Y-10.700964 Z-1.000000 I0.425108 J-0.105861
G01 X62.863346 Y-11.226098 Z-1.000000
G01 X62.863346 Y-11.226098 Z-1.000000
G00 Z5.000000

(End cutting path id: text3472)


(Start cutting path id: text3472)
(Change tool to Cylindrical cutter)

G00 Z5.000000
G00 X62.708316 Y-11.226098

G01 Z-1.000000 F100.0(Penetrate)
G03 X62.411473 Y-11.031252 Z-1.000000 I-0.184600 J0.042306 F400.000000
G03 X62.445748 Y-11.381127 Z-1.000000 I0.121221 J-0.164741
G03 X62.605182 Y-11.369999 Z-1.000000 I0.055603 J0.351059
G03 X62.708316 Y-11.226098 Z-1.000000 I-0.042589 J0.139433
G01 X62.708316 Y-11.226098 Z-1.000000
G00 Z5.000000

(End cutting path id: text3472)


(Start cutting path id: text3472)
(Change tool to Cylindrical cutter)

G00 Z5.000000
G00 X61.623111 Y-11.458642

G01 Z-1.000000 F100.0(Penetrate)
G03 X61.374702 Y-10.986234 Z-1.000000 I-0.458744 J0.060292 F400.000000
G03 X60.847964 Y-11.356020 Z-1.000000 I-0.165509 J-0.324289
G02 X60.542534 Y-10.574299 Z-1.000000 I0.110585 J0.493736
G02 X61.623111 Y-10.903486 Z-1.000000 I0.487602 J-0.337542
G01 X61.623111 Y-11.458642 Z-1.000000
G01 X61.623111 Y-11.458642 Z-1.000000
G00 Z5.000000

(End cutting path id: text3472)


(Start cutting path id: text3472)
(Change tool to Cylindrical cutter)

G00 Z5.000000
G00 X60.382877 Y-11.458642

G01 Z-1.000000 F100.0(Penetrate)
G02 X60.183026 Y-10.699572 Z-1.000000 I1.107166 J0.697343 F400.000000
G02 X60.267085 Y-10.311512 Z-1.000000 I1.199236 J-0.056637
G01 X60.326767 Y-10.316848 Z-1.000000
G02 X60.382877 Y-11.278505 Z-1.000000 I-3.316198 J-0.675957
G01 X60.382877 Y-11.458642 Z-1.000000
G00 Z5.000000

(End cutting path id: text3472)


(Start cutting path id: text3472)
(Change tool to Cylindrical cutter)

G00 Z5.000000
G00 X60.072817 Y-11.226098

G01 Z-1.000000 F100.0(Penetrate)
G02 X58.892176 Y-10.738360 Z-1.000000 I-0.514264 J0.427974 F400.000000
G02 X59.655220 Y-10.683495 Z-1.000000 I0.385983 J-0.034617
G02 X60.015750 Y-10.852642 Z-1.000000 I0.063800 J-0.332815
G02 X60.072817 Y-11.226098 Z-1.000000 I-0.479201 J-0.264314
G01 X60.072817 Y-11.226098 Z-1.000000
G00 Z5.000000

(End cutting path id: text3472)


(Start cutting path id: text3472)
(Change tool to Cylindrical cutter)

G00 Z5.000000
G00 X59.917790 Y-11.226098

G01 Z-1.000000 F100.0(Penetrate)
G03 X59.611311 Y-10.910869 Z-1.000000 I-0.358309 J-0.041763 F400.000000
G03 X59.452489 Y-11.003740 Z-1.000000 I-0.021196 J-0.145992
G03 X59.498524 Y-11.209358 Z-1.000000 I0.177026 J-0.068328
G03 X59.917790 Y-11.226098 Z-1.000000 I0.219138 J0.229675
G01 X59.917790 Y-11.226098 Z-1.000000
G00 Z5.000000

(End cutting path id: text3472)


(Start cutting path id: text3472)
(Change tool to Cylindrical cutter)

G00 Z5.000000
G00 X58.987613 Y-11.226098

G01 Z-1.000000 F100.0(Penetrate)
G02 X56.505962 Y-10.077576 Z-1.000000 I-1.072476 J0.938020 F400.000000
G02 X58.606242 Y-9.868041 Z-1.000000 I1.076637 J-0.160828
G02 X58.840117 Y-10.060414 Z-1.000000 I-0.117707 J-0.381453
G02 X58.987613 Y-11.226098 Z-1.000000 I-1.439886 J-0.774364
G01 X58.987613 Y-11.226098 Z-1.000000
G00 Z5.000000

(End cutting path id: text3472)


(Start cutting path id: text3472)
(Change tool to Cylindrical cutter)

G00 Z5.000000
G00 X58.832583 Y-11.226098

G01 Z-1.000000 F100.0(Penetrate)
G03 X58.536588 Y-11.032249 Z-1.000000 I-0.183917 J0.042077 F400.000000
G03 X58.571566 Y-11.381127 Z-1.000000 I0.121143 J-0.164047
G03 X58.730156 Y-11.369391 Z-1.000000 I0.053572 J0.353484
G03 X58.832583 Y-11.226098 Z-1.000000 I-0.042630 J0.138727
G01 X58.832583 Y-11.226098 Z-1.000000
G00 Z5.000000

(End cutting path id: text3472)


(Start cutting path id: text3472)
(Change tool to Cylindrical cutter)

G00 Z5.000000
G00 X58.522525 Y-9.675805

G01 Z-1.000000 F100.0(Penetrate)
G03 X58.284271 Y-9.643378 Z-1.000000 I-0.133677 J-0.090694 F400.000000
G03 X58.211209 Y-9.799687 Z-1.000000 I0.134145 J-0.157931
G03 X58.276057 Y-9.857448 Z-1.000000 I0.057746 J-0.000452
G03 X58.522525 Y-9.675805 Z-1.000000 I-0.038441 J0.310194
G01 X58.522525 Y-9.675805 Z-1.000000
G00 Z5.000000

(End cutting path id: text3472)


(Start cutting path id: text3472)
(Change tool to Cylindrical cutter)

G00 Z5.000000
G00 X56.817204 Y-11.226098

G01 Z-1.000000 F100.0(Penetrate)
G02 X55.965488 Y-10.694740 Z-1.000000 I-0.339661 J0.403845 F400.000000
G02 X56.817204 Y-10.700964 Z-1.000000 I0.425107 J-0.105861
G01 X56.817204 Y-11.226098 Z-1.000000
G01 X56.817204 Y-11.226098 Z-1.000000
G00 Z5.000000

(End cutting path id: text3472)


(Start cutting path id: text3472)
(Change tool to Cylindrical cutter)

G00 Z5.000000
G00 X56.662174 Y-11.226098

G01 Z-1.000000 F100.0(Penetrate)
G03 X56.365331 Y-11.031253 Z-1.000000 I-0.184599 J0.042306 F400.000000
G03 X56.399607 Y-11.381127 Z-1.000000 I0.121221 J-0.164740
G03 X56.559040 Y-11.369999 Z-1.000000 I0.055603 J0.351056
G03 X56.662174 Y-11.226098 Z-1.000000 I-0.042589 J0.139433
G01 X56.662174 Y-11.226098 Z-1.000000
G00 Z5.000000

(End cutting path id: text3472)


(Start cutting path id: text3472)
(Change tool to Cylindrical cutter)

G00 Z5.000000
G00 X55.584719 Y-11.300508

G01 Z-1.000000 F100.0(Penetrate)
G02 X55.198245 Y-10.775977 Z-1.000000 I-0.147919 J0.295656 F400.000000
G03 X54.857641 Y-10.170344 Z-1.000000 I-0.261920 J0.251291
G02 X55.199593 Y-10.214588 Z-1.000000 I0.161670 J-0.094051
G02 X54.956851 Y-11.381123 Z-1.000000 I-1.256340 J-0.347094
G03 X55.332998 Y-11.306570 Z-1.000000 I0.153948 J0.209454
G02 X55.584720 Y-11.300513 Z-1.000000 I0.127801 J-0.077590
G01 X55.584719 Y-11.300508 Z-1.000000
G00 Z5.000000

(End cutting path id: text3472)


(Start cutting path id: text3472)
(Change tool to Cylindrical cutter)

G00 Z5.000000
G00 X54.336735 Y-11.226098

G01 Z-1.000000 F100.0(Penetrate)
G02 X53.485018 Y-10.694740 Z-1.000000 I-0.339661 J0.403845 F400.000000
G02 X54.336735 Y-10.700964 Z-1.000000 I0.425107 J-0.105861
G01 X54.336735 Y-11.226098 Z-1.000000
G01 X54.336735 Y-11.226098 Z-1.000000
G00 Z5.000000

(End cutting path id: text3472)


(Start cutting path id: text3472)
(Change tool to Cylindrical cutter)

G00 Z5.000000
G00 X54.181705 Y-11.226098

G01 Z-1.000000 F100.0(Penetrate)
G03 X53.884862 Y-11.031253 Z-1.000000 I-0.184599 J0.042306 F400.000000
G03 X53.919138 Y-11.381127 Z-1.000000 I0.121221 J-0.164740
G03 X54.078572 Y-11.369999 Z-1.000000 I0.055603 J0.351059
G03 X54.181705 Y-11.226098 Z-1.000000 I-0.042589 J0.139432
G01 X54.181705 Y-11.226098 Z-1.000000
G00 Z5.000000

(End cutting path id: text3472)


(Start cutting path id: text3472)
(Change tool to Cylindrical cutter)

G00 Z5.000000
G00 X53.096501 Y-11.458642

G01 Z-1.000000 F100.0(Penetrate)
G03 X52.538026 Y-11.133550 Z-1.000000 I-0.399428 J-0.043929 F400.000000
G02 X52.166324 Y-10.851078 Z-1.000000 I-0.106102 J0.246177
G02 X52.538935 Y-10.423973 Z-1.000000 I0.365733 J0.057018
G03 X53.018986 Y-9.985863 Z-1.000000 I0.008780 J0.472439
G02 X53.113966 Y-10.689178 Z-1.000000 I-1.100456 J-0.506683
G03 X53.096506 Y-11.458642 Z-1.000000 I2.714705 J-0.446529
G01 X53.096501 Y-11.458642 Z-1.000000
G00 Z5.000000

(End cutting path id: text3472)


(Start cutting path id: text3472)
(Change tool to Cylindrical cutter)

G00 Z5.000000
G00 X51.856266 Y-11.458642

G01 Z-1.000000 F100.0(Penetrate)
G03 X51.297791 Y-11.133550 Z-1.000000 I-0.399428 J-0.043929 F400.000000
G02 X50.926089 Y-10.851078 Z-1.000000 I-0.106102 J0.246177
G02 X51.298700 Y-10.423973 Z-1.000000 I0.365733 J0.057018
G03 X51.778751 Y-9.985863 Z-1.000000 I0.008780 J0.472438
G02 X51.873730 Y-10.689179 Z-1.000000 I-1.100452 J-0.506681
G03 X51.856261 Y-11.458642 Z-1.000000 I2.714887 J-0.446566
G01 X51.856266 Y-11.458642 Z-1.000000
G00 Z5.000000

(End cutting path id: text3472)


(Start cutting path id: text3472)
(Change tool to Cylindrical cutter)

G00 Z5.000000
G00 X49.840885 Y-10.838524

G01 Z-1.000000 F100.0(Penetrate)
G01 X49.862529 Y-10.816652 Z-1.000000 F400.000000
G02 X49.685855 Y-10.297472 Z-1.000000 I0.498510 J0.459290
G02 X50.289581 Y-10.339082 Z-1.000000 I0.291313 J-0.173880
G02 X49.840885 Y-10.838524 Z-1.000000 I-0.341415 J-0.144549
G01 X49.840885 Y-10.838524 Z-1.000000
G00 Z5.000000

(End cutting path id: text3472)


(Start cutting path id: text3472)
(Change tool to Cylindrical cutter)

G00 Z5.000000
G00 X49.840885 Y-10.685045

G01 Z-1.000000 F100.0(Penetrate)
G03 X50.421048 Y-10.453980 Z-1.000000 I0.100177 J0.592348 F400.000000
G03 X50.402357 Y-10.253579 Z-1.000000 I-0.119476 J0.089929
G03 X50.133405 Y-10.200413 Z-1.000000 I-0.178382 J-0.195526
G03 X49.840885 Y-10.685045 Z-1.000000 I0.154321 J-0.423745
G01 X49.840885 Y-10.685045 Z-1.000000
G00 Z5.000000

(End cutting path id: text3472)


(Start cutting path id: text3472)
(Change tool to Cylindrical cutter)

G00 Z5.000000
G00 X49.375798 Y-11.458642

G01 Z-1.000000 F100.0(Penetrate)
G03 X48.887785 Y-10.666532 Z-1.000000 I-0.776010 J0.068292 F400.000000
G03 X48.445620 Y-10.928290 Z-1.000000 I-0.120008 J-0.301615
G02 X47.534182 Y-10.955955 Z-1.000000 I-0.457523 J0.045613
G02 X48.945535 Y-10.451425 Z-1.000000 I0.752433 J0.121470
G02 X49.347051 Y-10.617118 Z-1.000000 I0.191957 J-0.104172
G03 X49.375798 Y-11.458642 Z-1.000000 I1.285360 J-0.377344
G01 X49.375798 Y-11.458642 Z-1.000000
G00 Z5.000000

(End cutting path id: text3472)


(Start cutting path id: text3472)
(Change tool to Cylindrical cutter)

G00 Z5.000000
G00 X47.205386 Y-10.838524

G01 Z-1.000000 F100.0(Penetrate)
G01 X47.227030 Y-10.816652 Z-1.000000 F400.000000
G02 X47.050356 Y-10.297472 Z-1.000000 I0.498510 J0.459291
G02 X47.654081 Y-10.339082 Z-1.000000 I0.291312 J-0.173880
G02 X47.205386 Y-10.838524 Z-1.000000 I-0.341415 J-0.144549
G01 X47.205386 Y-10.838524 Z-1.000000
G00 Z5.000000

(End cutting path id: text3472)


(Start cutting path id: text3472)
(Change tool to Cylindrical cutter)

G00 Z5.000000
G00 X47.205386 Y-10.685045

G01 Z-1.000000 F100.0(Penetrate)
G03 X47.785550 Y-10.453980 Z-1.000000 I0.100177 J0.592349 F400.000000
G03 X47.766859 Y-10.253579 Z-1.000000 I-0.119476 J0.089929
G03 X47.497907 Y-10.200412 Z-1.000000 I-0.178382 J-0.195527
G03 X47.205386 Y-10.685045 Z-1.000000 I0.154321 J-0.423745
G01 X47.205386 Y-10.685045 Z-1.000000
G00 Z5.000000

(End cutting path id: text3472)


(Start cutting path id: text3472)
(Change tool to Cylindrical cutter)

G00 Z5.000000
G00 X45.965152 Y-11.382677

G01 Z-1.000000 F100.0(Penetrate)
G03 X46.331222 Y-10.835539 Z-1.000000 I0.042998 J0.367263 F400.000000
G03 X45.965152 Y-10.950978 Z-1.000000 I-0.171182 J-0.095308
G01 X45.965152 Y-11.382677 Z-1.000000
G01 X45.965152 Y-11.382677 Z-1.000000
G00 Z5.000000

(End cutting path id: text3472)


(Start cutting path id: text3472)
(Change tool to Cylindrical cutter)

G00 Z5.000000
G00 X45.965152 Y-11.537706

G01 Z-1.000000 F100.0(Penetrate)
G02 X44.400635 Y-11.862387 Z-1.000000 I-0.809930 J-0.029001 F400.000000
G02 X46.431789 Y-9.985863 Z-1.000000 I1.382080 J0.541558
G02 X47.012116 Y-10.856834 Z-1.000000 I-0.343927 J-0.857979
G02 X45.965152 Y-11.537706 Z-1.000000 I-0.751749 J0.010567
G01 X45.965152 Y-11.537706 Z-1.000000
G00 Z5.000000

(End cutting path id: text3472)


(Start cutting path id: text3472)
(Change tool to Cylindrical cutter)

G00 Z5.000000
G00 X45.500065 Y-11.226098

G01 Z-1.000000 F100.0(Penetrate)
G02 X43.018412 Y-10.077573 Z-1.000000 I-1.072476 J0.938021 F400.000000
G02 X45.118691 Y-9.868041 Z-1.000000 I1.076636 J-0.160828
G02 X45.352590 Y-10.060426 Z-1.000000 I-0.117660 J-0.381429
G02 X45.500065 Y-11.226098 Z-1.000000 I-1.440030 J-0.774350
G01 X45.500065 Y-11.226098 Z-1.000000
G00 Z5.000000

(End cutting path id: text3472)


(Start cutting path id: text3472)
(Change tool to Cylindrical cutter)

G00 Z5.000000
G00 X45.345035 Y-11.226098

G01 Z-1.000000 F100.0(Penetrate)
G03 X45.049040 Y-11.032249 Z-1.000000 I-0.183917 J0.042077 F400.000000
G03 X45.084018 Y-11.381127 Z-1.000000 I0.121143 J-0.164047
G03 X45.242608 Y-11.369391 Z-1.000000 I0.053572 J0.353484
G03 X45.345035 Y-11.226098 Z-1.000000 I-0.042630 J0.138727
G01 X45.345035 Y-11.226098 Z-1.000000
G00 Z5.000000

(End cutting path id: text3472)


(Start cutting path id: text3472)
(Change tool to Cylindrical cutter)

G00 Z5.000000
G00 X45.034977 Y-9.675805

G01 Z-1.000000 F100.0(Penetrate)
G03 X44.796721 Y-9.643378 Z-1.000000 I-0.133678 J-0.090695 F400.000000
G03 X44.723660 Y-9.799686 Z-1.000000 I0.134144 J-0.157930
G03 X44.788509 Y-9.857448 Z-1.000000 I0.057747 J-0.000452
G03 X45.034977 Y-9.675805 Z-1.000000 I-0.038440 J0.310194
G01 X45.034977 Y-9.675805 Z-1.000000
G00 Z5.000000

(End cutting path id: text3472)


(Start cutting path id: text3472)
(Change tool to Cylindrical cutter)

G00 Z5.000000
G00 X43.484683 Y-10.685045

G01 Z-1.000000 F100.0(Penetrate)
G03 X44.064847 Y-10.453980 Z-1.000000 I0.100177 J0.592349 F400.000000
G03 X44.046156 Y-10.253579 Z-1.000000 I-0.119476 J0.089929
G03 X43.777204 Y-10.200412 Z-1.000000 I-0.178382 J-0.195527
G03 X43.484683 Y-10.685045 Z-1.000000 I0.154321 J-0.423745
G01 X43.484683 Y-10.685045 Z-1.000000
G00 Z5.000000

(End cutting path id: text3472)


(Start cutting path id: text3472)
(Change tool to Cylindrical cutter)

G00 Z5.000000
G00 X43.484683 Y-10.838524

G01 Z-1.000000 F100.0(Penetrate)
G01 X43.506327 Y-10.816652 Z-1.000000 F400.000000
G02 X43.329653 Y-10.297472 Z-1.000000 I0.498510 J0.459291
G02 X43.933378 Y-10.339082 Z-1.000000 I0.291312 J-0.173880
G02 X43.484683 Y-10.838524 Z-1.000000 I-0.341415 J-0.144549
G01 X43.484683 Y-10.838524 Z-1.000000
G00 Z5.000000

(End cutting path id: text3472)


(Start cutting path id: text3472)
(Change tool to Cylindrical cutter)

G00 Z5.000000
G00 X43.019596 Y-11.226098

G01 Z-1.000000 F100.0(Penetrate)
G02 X42.167879 Y-10.694740 Z-1.000000 I-0.339662 J0.403845 F400.000000
G02 X43.019596 Y-10.700964 Z-1.000000 I0.425108 J-0.105861
G01 X43.019596 Y-11.226098 Z-1.000000
G01 X43.019596 Y-11.226098 Z-1.000000
G00 Z5.000000

(End cutting path id: text3472)


(Start cutting path id: text3472)
(Change tool to Cylindrical cutter)

G00 Z5.000000
G00 X42.864566 Y-11.226098

G01 Z-1.000000 F100.0(Penetrate)
G03 X42.567723 Y-11.031253 Z-1.000000 I-0.184599 J0.042306 F400.000000
G03 X42.601999 Y-11.381127 Z-1.000000 I0.121221 J-0.164740
G03 X42.761432 Y-11.369999 Z-1.000000 I0.055603 J0.351056
G03 X42.864566 Y-11.226098 Z-1.000000 I-0.042589 J0.139433
G01 X42.864566 Y-11.226098 Z-1.000000
G00 Z5.000000

(End cutting path id: text3472)


(Start cutting path id: text3472)
(Change tool to Cylindrical cutter)

G00 Z5.000000
G00 X41.779361 Y-11.226098

G01 Z-1.000000 F100.0(Penetrate)
G02 X39.297709 Y-10.077573 Z-1.000000 I-1.072476 J0.938021 F400.000000
G02 X41.397988 Y-9.868041 Z-1.000000 I1.076636 J-0.160829
G02 X41.631887 Y-10.060426 Z-1.000000 I-0.117660 J-0.381429
G02 X41.779361 Y-11.226098 Z-1.000000 I-1.440027 J-0.774348
G01 X41.779361 Y-11.226098 Z-1.000000
G00 Z5.000000

(End cutting path id: text3472)


(Start cutting path id: text3472)
(Change tool to Cylindrical cutter)

G00 Z5.000000
G00 X41.624331 Y-11.226098

G01 Z-1.000000 F100.0(Penetrate)
G03 X41.328337 Y-11.032250 Z-1.000000 I-0.183917 J0.042077 F400.000000
G03 X41.363315 Y-11.381127 Z-1.000000 I0.121143 J-0.164046
G03 X41.521905 Y-11.369391 Z-1.000000 I0.053572 J0.353484
G03 X41.624331 Y-11.226098 Z-1.000000 I-0.042630 J0.138726
G01 X41.624331 Y-11.226098 Z-1.000000
G00 Z5.000000

(End cutting path id: text3472)


(Start cutting path id: text3472)
(Change tool to Cylindrical cutter)

G00 Z5.000000
G00 X40.461612 Y-11.536156

G01 Z-1.000000 F100.0(Penetrate)
G02 X39.838547 Y-9.909338 Z-1.000000 I-0.061811 J0.909051 F400.000000
G02 X40.056569 Y-10.140893 Z-1.000000 I0.098368 J-0.125799
G03 X39.649214 Y-11.294811 Z-1.000000 I0.250836 J-0.737411
G03 X40.461612 Y-11.536156 Z-1.000000 I0.544389 J0.344493
G01 X40.461612 Y-11.536156 Z-1.000000
G00 Z5.000000

(End cutting path id: text3472)


(Start cutting path id: text3472)
(Change tool to Cylindrical cutter)

G00 Z5.000000
G00 X41.314274 Y-9.675805

G01 Z-1.000000 F100.0(Penetrate)
G03 X41.076018 Y-9.643378 Z-1.000000 I-0.133678 J-0.090695 F400.000000
G03 X41.002957 Y-9.799686 Z-1.000000 I0.134144 J-0.157930
G03 X41.067806 Y-9.857448 Z-1.000000 I0.057747 J-0.000452
G03 X41.314274 Y-9.675805 Z-1.000000 I-0.038440 J0.310194
G01 X41.314274 Y-9.675805 Z-1.000000
G00 Z5.000000

(End cutting path id: text3472)


(Start cutting path id: text3472)
(Change tool to Cylindrical cutter)

G00 Z5.000000
G00 X38.368716 Y-11.226098

G01 Z-1.000000 F100.0(Penetrate)
G02 X37.019343 Y-10.659654 Z-1.000000 I-0.602184 J0.455936 F400.000000
G02 X37.593571 Y-10.683495 Z-1.000000 I0.285853 J-0.042277
G02 X38.095458 Y-10.732972 Z-1.000000 I0.141419 J-1.135737
G02 X38.368716 Y-11.226098 Z-1.000000 I-0.131041 J-0.394888
G01 X38.368716 Y-11.226098 Z-1.000000
G00 Z5.000000

(End cutting path id: text3472)


(Start cutting path id: text3472)
(Change tool to Cylindrical cutter)

G00 Z5.000000
G00 X38.213688 Y-11.226098

G01 Z-1.000000 F100.0(Penetrate)
G03 X37.810884 Y-10.872543 Z-1.000000 I-0.429747 J-0.083376 F400.000000
G03 X37.609026 Y-10.995607 Z-1.000000 I-0.012717 J-0.206223
G03 X37.662577 Y-11.205413 Z-1.000000 I0.160793 J-0.070696
G03 X38.213688 Y-11.226098 Z-1.000000 I0.290066 J0.376260
G01 X38.213688 Y-11.226098 Z-1.000000
G00 Z5.000000

(End cutting path id: text3472)


(Start cutting path id: text3472)
(Change tool to Cylindrical cutter)

G00 Z5.000000
G00 X36.353337 Y-10.140893

G01 Z-1.000000 F100.0(Penetrate)
G02 X36.084156 Y-10.267513 Z-1.000000 I-5.052330 J10.391293 F400.000000
G02 X35.733220 Y-10.063378 Z-1.000000 I-0.103040 J0.226580
G02 X37.278392 Y-10.832708 Z-1.000000 I0.594020 J-0.743308
G02 X36.973454 Y-10.851078 Z-1.000000 I-0.153275 J0.004193
G03 X36.521312 Y-10.858417 Z-1.000000 I-0.225677 J-0.027941
G02 X36.353337 Y-10.851078 Z-1.000000 I-0.083815 J0.007625
G01 X36.353337 Y-10.140893 Z-1.000000
G01 X36.353337 Y-10.140893 Z-1.000000
G00 Z5.000000

(End cutting path id: text3472)


(Start cutting path id: text3472)
(Change tool to Cylindrical cutter)

G00 Z5.000000
G00 X35.345645 Y-11.536155

G01 Z-1.000000 F100.0(Penetrate)
G02 X34.722579 Y-9.909336 Z-1.000000 I-0.061811 J0.909052 F400.000000
G02 X34.940602 Y-10.140892 Z-1.000000 I0.098368 J-0.125799
G03 X34.533249 Y-11.294810 Z-1.000000 I0.250837 J-0.737411
G03 X35.345645 Y-11.536155 Z-1.000000 I0.544388 J0.344493
G01 X35.345645 Y-11.536155 Z-1.000000
G00 Z5.000000

(End cutting path id: text3472)


(Start cutting path id: text3472)
(Change tool to Cylindrical cutter)

G00 Z5.000000
G00 X34.182925 Y-11.226097

G01 Z-1.000000 F100.0(Penetrate)
G02 X33.331206 Y-10.694738 Z-1.000000 I-0.339662 J0.403845 F400.000000
G02 X34.182925 Y-10.700963 Z-1.000000 I0.425108 J-0.105862
G01 X34.182925 Y-11.226097 Z-1.000000
G01 X34.182925 Y-11.226097 Z-1.000000
G00 Z5.000000

(End cutting path id: text3472)


(Start cutting path id: text3472)
(Change tool to Cylindrical cutter)

G00 Z5.000000
G00 X34.027895 Y-11.226097

G01 Z-1.000000 F100.0(Penetrate)
G03 X33.731053 Y-11.031253 Z-1.000000 I-0.184599 J0.042305 F400.000000
G03 X33.765328 Y-11.381126 Z-1.000000 I0.121221 J-0.164740
G03 X33.924762 Y-11.369998 Z-1.000000 I0.055603 J0.351059
G03 X34.027895 Y-11.226097 Z-1.000000 I-0.042589 J0.139432
G01 X34.027895 Y-11.226097 Z-1.000000
G00 Z5.000000

(End cutting path id: text3472)


(Start cutting path id: text3472)
(Change tool to Cylindrical cutter)

G00 Z5.000000
G00 X32.942691 Y-11.458641

G01 Z-1.000000 F100.0(Penetrate)
G03 X32.454678 Y-10.666532 Z-1.000000 I-0.776009 J0.068291 F400.000000
G03 X32.012517 Y-10.928289 Z-1.000000 I-0.120007 J-0.301612
G02 X31.101075 Y-10.955954 Z-1.000000 I-0.457526 J0.045614
G02 X32.512428 Y-10.451424 Z-1.000000 I0.752433 J0.121471
G02 X32.913941 Y-10.617117 Z-1.000000 I0.191956 J-0.104172
G03 X32.942691 Y-11.458641 Z-1.000000 I1.285325 J-0.377341
G01 X32.942691 Y-11.458641 Z-1.000000
G00 Z5.000000

(End cutting path id: text3472)


(Start cutting path id: text3472)
(Change tool to Cylindrical cutter)

G00 Z5.000000
G00 X31.547429 Y-11.458641

G01 Z-1.000000 F100.0(Penetrate)
G02 X30.888041 Y-11.075140 Z-1.000000 I-0.200626 J0.413668 F400.000000
G03 X30.772282 Y-11.075983 Z-1.000000 I-0.057855 J-0.003804
G03 X31.464878 Y-10.877311 Z-1.000000 I0.320582 J0.188984
G01 X31.547429 Y-10.873462 Z-1.000000
G01 X31.547429 Y-11.458641 Z-1.000000
G01 X31.547429 Y-11.458641 Z-1.000000
G00 Z5.000000

(End cutting path id: text3472)


(Start cutting path id: text3472)
(Change tool to Cylindrical cutter)

G00 Z5.000000
G00 X30.307195 Y-11.226097

G01 Z-1.000000 F100.0(Penetrate)
G02 X29.224936 Y-10.345660 Z-1.000000 I-0.393346 J0.621879 F400.000000
G02 X30.105657 Y-9.565734 Z-1.000000 I1.176823 J-0.441677
G03 X29.977129 Y-9.824924 Z-1.000000 I-0.040587 J-0.141336
G02 X30.307195 Y-11.226097 Z-1.000000 I-0.669449 J-0.897161
G01 X30.307195 Y-11.226097 Z-1.000000
G00 Z5.000000

(End cutting path id: text3472)


(Start cutting path id: text3472)
(Change tool to Cylindrical cutter)

G00 Z5.000000
G00 X30.152165 Y-11.226097

G01 Z-1.000000 F100.0(Penetrate)
G03 X29.860659 Y-11.030899 Z-1.000000 I-0.181534 J0.044163 F400.000000
G03 X29.891146 Y-11.381126 Z-1.000000 I0.120812 J-0.165924
G03 X30.049733 Y-11.369393 Z-1.000000 I0.053575 J0.353503
G03 X30.152165 Y-11.226097 Z-1.000000 I-0.042626 J0.138729
G01 X30.152165 Y-11.226097 Z-1.000000
G00 Z5.000000

(End cutting path id: text3472)


(Start cutting path id: text3472)
(Change tool to Cylindrical cutter)

G00 Z5.000000
G00 X29.066961 Y-11.226097

G01 Z-1.000000 F100.0(Penetrate)
G02 X28.215245 Y-10.694739 Z-1.000000 I-0.339661 J0.403845 F400.000000
G02 X29.066961 Y-10.700963 Z-1.000000 I0.425107 J-0.105861
G01 X29.066961 Y-11.226097 Z-1.000000
G01 X29.066961 Y-11.226097 Z-1.000000
G00 Z5.000000

(End cutting path id: text3472)


(Start cutting path id: text3472)
(Change tool to Cylindrical cutter)

G00 Z5.000000
G00 X28.911931 Y-11.226097

G01 Z-1.000000 F100.0(Penetrate)
G03 X28.615088 Y-11.031251 Z-1.000000 I-0.184600 J0.042306 F400.000000
G03 X28.649363 Y-11.381126 Z-1.000000 I0.121221 J-0.164741
G03 X28.808797 Y-11.369998 Z-1.000000 I0.055603 J0.351059
G03 X28.911931 Y-11.226097 Z-1.000000 I-0.042589 J0.139433
G01 X28.911931 Y-11.226097 Z-1.000000
G00 Z5.000000

(End cutting path id: text3472)


(Start cutting path id: text3472)
(Change tool to Cylindrical cutter)

G00 Z5.000000
G00 X27.450005 Y-10.759458

G01 Z-1.000000 F100.0(Penetrate)
G02 X26.998223 Y-11.252529 Z-1.000000 I-0.247798 J-0.226463 F400.000000
G01 X27.004303 Y-11.244457 Z-1.000000
G02 X27.323929 Y-10.452919 Z-1.000000 I1.459238 J-0.128943
G02 X27.746108 Y-9.985862 Z-1.000000 I4.410936 J-3.562775
G02 X27.717582 Y-10.366676 Z-1.000000 I-0.124793 J-0.182127
G03 X27.450005 Y-10.759458 Z-1.000000 I0.207956 J-0.429199
G01 X27.450005 Y-10.759458 Z-1.000000
G00 Z5.000000

(End cutting path id: text3472)


(Start cutting path id: text3472)
(Change tool to Cylindrical cutter)

G00 Z5.000000
G00 X26.586492 Y-11.226097

G01 Z-1.000000 F100.0(Penetrate)
G02 X26.029134 Y-10.531705 Z-1.000000 I-0.223637 J0.391376 F400.000000
G03 X25.679569 Y-9.499070 Z-1.000000 I-0.461677 J0.419199
G02 X26.230358 Y-9.851438 Z-1.000000 I0.121254 J-0.417122
G03 X26.586492 Y-10.903485 Z-1.000000 I3.122601 J0.470746
G01 X26.586492 Y-11.106006 Z-1.000000
G01 X26.586492 Y-11.226097 Z-1.000000
G00 Z5.000000

(End cutting path id: text3472)


(Start cutting path id: text3472)
(Change tool to Cylindrical cutter)

G00 Z5.000000
G00 X26.431461 Y-11.226097

G01 Z-1.000000 F100.0(Penetrate)
G03 X26.135467 Y-11.032249 Z-1.000000 I-0.183916 J0.042077 F400.000000
G03 X26.170445 Y-11.381126 Z-1.000000 I0.121143 J-0.164046
G03 X26.329035 Y-11.369390 Z-1.000000 I0.053572 J0.353484
G03 X26.431461 Y-11.226097 Z-1.000000 I-0.042630 J0.138726
G01 X26.431461 Y-11.226097 Z-1.000000
G00 Z5.000000

(End cutting path id: text3472)


(Start cutting path id: text3472)
(Change tool to Cylindrical cutter)

G00 Z5.000000
G00 X25.346256 Y-11.226097

G01 Z-1.000000 F100.0(Penetrate)
G02 X24.494538 Y-10.694739 Z-1.000000 I-0.339662 J0.403845 F400.000000
G02 X25.346256 Y-10.700963 Z-1.000000 I0.425108 J-0.105862
G01 X25.346256 Y-11.226097 Z-1.000000
G01 X25.346256 Y-11.226097 Z-1.000000
G00 Z5.000000

(End cutting path id: text3472)


(Start cutting path id: text3472)
(Change tool to Cylindrical cutter)

G00 Z5.000000
G00 X25.191227 Y-11.226097

G01 Z-1.000000 F100.0(Penetrate)
G03 X24.894385 Y-11.031252 Z-1.000000 I-0.184599 J0.042306 F400.000000
G03 X24.928660 Y-11.381126 Z-1.000000 I0.121221 J-0.164740
G03 X25.088092 Y-11.369999 Z-1.000000 I0.055603 J0.351058
G03 X25.191227 Y-11.226097 Z-1.000000 I-0.042588 J0.139432
G01 X25.191227 Y-11.226097 Z-1.000000
G00 Z5.000000

(End cutting path id: text3472)


(Start cutting path id: text3472)
(Change tool to Cylindrical cutter)

G00 Z5.000000
G00 X23.330875 Y-10.838523

G01 Z-1.000000 F100.0(Penetrate)
G01 X23.352519 Y-10.816651 Z-1.000000 F400.000000
G02 X23.175846 Y-10.297471 Z-1.000000 I0.498512 J0.459290
G02 X23.779571 Y-10.339080 Z-1.000000 I0.291312 J-0.173879
G02 X23.330875 Y-10.838523 Z-1.000000 I-0.341415 J-0.144549
G01 X23.330875 Y-10.838523 Z-1.000000
G00 Z5.000000

(End cutting path id: text3472)


(Start cutting path id: text3472)
(Change tool to Cylindrical cutter)

G00 Z5.000000
G00 X23.330875 Y-10.685044

G01 Z-1.000000 F100.0(Penetrate)
G03 X23.911039 Y-10.453978 Z-1.000000 I0.100177 J0.592350 F400.000000
G03 X23.892349 Y-10.253577 Z-1.000000 I-0.119476 J0.089929
G03 X23.623396 Y-10.200411 Z-1.000000 I-0.178383 J-0.195527
G03 X23.330875 Y-10.685044 Z-1.000000 I0.154321 J-0.423746
G01 X23.330875 Y-10.685044 Z-1.000000
G00 Z5.000000

(End cutting path id: text3472)


(Start cutting path id: text3472)
(Change tool to Cylindrical cutter)

G00 Z5.000000
G00 X22.865787 Y-11.458641

G01 Z-1.000000 F100.0(Penetrate)
G03 X22.307313 Y-11.133549 Z-1.000000 I-0.399427 J-0.043929 F400.000000
G02 X21.935612 Y-10.851077 Z-1.000000 I-0.106101 J0.246177
G02 X22.308222 Y-10.423972 Z-1.000000 I0.365733 J0.057018
G03 X22.788273 Y-9.985862 Z-1.000000 I0.008779 J0.472438
G02 X22.883252 Y-10.689178 Z-1.000000 I-1.100461 J-0.506682
G03 X22.865783 Y-11.458641 Z-1.000000 I2.714898 J-0.446565
G01 X22.865787 Y-11.458641 Z-1.000000
G00 Z5.000000

(End cutting path id: text3472)


(Start cutting path id: text3472)
(Change tool to Cylindrical cutter)

G00 Z5.000000
G00 X19.920231 Y-10.140892

G01 Z-1.000000 F100.0(Penetrate)
G02 X19.651050 Y-10.267512 Z-1.000000 I-5.050999 J10.388416 F400.000000
G02 X19.300114 Y-10.063377 Z-1.000000 I-0.103040 J0.226581
G02 X20.845287 Y-10.832707 Z-1.000000 I0.594021 J-0.743309
G02 X20.540348 Y-10.851077 Z-1.000000 I-0.153276 J0.004193
G03 X20.088209 Y-10.858416 Z-1.000000 I-0.225676 J-0.027941
G02 X19.920231 Y-10.851077 Z-1.000000 I-0.083816 J0.007625
G01 X19.920231 Y-10.140892 Z-1.000000
G01 X19.920231 Y-10.140892 Z-1.000000
G00 Z5.000000

(End cutting path id: text3472)


(Start cutting path id: text3472)
(Change tool to Cylindrical cutter)

G00 Z5.000000
G00 X18.214909 Y-10.685044

G01 Z-1.000000 F100.0(Penetrate)
G03 X18.795072 Y-10.453979 Z-1.000000 I0.100177 J0.592349 F400.000000
G03 X18.776382 Y-10.253578 Z-1.000000 I-0.119476 J0.089929
G03 X18.507430 Y-10.200412 Z-1.000000 I-0.178382 J-0.195527
G03 X18.214909 Y-10.685044 Z-1.000000 I0.154321 J-0.423745
G01 X18.214909 Y-10.685044 Z-1.000000
G00 Z5.000000

(End cutting path id: text3472)


(Start cutting path id: text3472)
(Change tool to Cylindrical cutter)

G00 Z5.000000
G00 X18.214909 Y-10.838523

G01 Z-1.000000 F100.0(Penetrate)
G01 X18.236553 Y-10.816652 Z-1.000000 F400.000000
G02 X18.059879 Y-10.297471 Z-1.000000 I0.498511 J0.459291
G02 X18.663605 Y-10.339080 Z-1.000000 I0.291313 J-0.173879
G02 X18.214909 Y-10.838523 Z-1.000000 I-0.341415 J-0.144549
G01 X18.214909 Y-10.838523 Z-1.000000
G00 Z5.000000

(End cutting path id: text3472)


(Start cutting path id: text3472)
(Change tool to Cylindrical cutter)

G00 Z5.000000
G00 X17.749821 Y-11.844664

G01 Z-1.000000 F100.0(Penetrate)
G02 X17.286365 Y-11.646369 Z-1.000000 I-0.145235 J0.301299 F400.000000
G03 X16.819645 Y-11.224546 Z-1.000000 I-0.599310 J-0.193989
G02 X17.175535 Y-11.148867 Z-1.000000 I0.190211 J-0.019844
G03 X17.594791 Y-11.381126 Z-1.000000 I0.402532 J0.232085
G02 X17.652586 Y-10.165207 Z-1.000000 I9.830230 J0.142084
G01 X17.693089 Y-10.163746 Z-1.000000
G02 X17.761450 Y-10.731723 Z-1.000000 I-4.557899 J-0.836693
G02 X17.749821 Y-11.844664 Z-1.000000 I-8.120495 J-0.471678
G01 X17.749821 Y-11.844664 Z-1.000000
G00 Z5.000000

(End cutting path id: text3472)


(Start cutting path id: text3472)
(Change tool to Cylindrical cutter)

G00 Z5.000000
G00 X15.734440 Y-11.537705

G01 Z-1.000000 F100.0(Penetrate)
G02 X14.169922 Y-11.862386 Z-1.000000 I-0.809931 J-0.029001 F400.000000
G02 X16.201078 Y-9.985862 Z-1.000000 I1.382081 J0.541558
G02 X16.781402 Y-10.856833 Z-1.000000 I-0.343934 J-0.857981
G02 X15.734440 Y-11.537705 Z-1.000000 I-0.751748 J0.010566
G01 X15.734440 Y-11.537705 Z-1.000000
G00 Z5.000000

(End cutting path id: text3472)


(Start cutting path id: text3472)
(Change tool to Cylindrical cutter)

G00 Z5.000000
G00 X15.734440 Y-11.382676

G01 Z-1.000000 F100.0(Penetrate)
G03 X16.100510 Y-10.835538 Z-1.000000 I0.042998 J0.367263 F400.000000
G03 X15.734440 Y-10.950977 Z-1.000000 I-0.171182 J-0.095308
G01 X15.734440 Y-11.382676 Z-1.000000
G01 X15.734440 Y-11.382676 Z-1.000000
G00 Z5.000000

(End cutting path id: text3472)


(Start cutting path id: text3472)
(Change tool to Cylindrical cutter)

G00 Z5.000000
G00 X15.269352 Y-11.458646

G01 Z-1.000000 F100.0(Penetrate)
G02 X14.609965 Y-11.075145 Z-1.000000 I-0.200626 J0.413668 F400.000000
G03 X14.494206 Y-11.075988 Z-1.000000 I-0.057855 J-0.003804
G03 X15.186802 Y-10.877316 Z-1.000000 I0.320582 J0.188984
G01 X15.269352 Y-10.873467 Z-1.000000
G01 X15.269352 Y-11.458646 Z-1.000000
G01 X15.269352 Y-11.458646 Z-1.000000
G00 Z5.000000

(End cutting path id: text3472)


(Start cutting path id: text3472)
(Change tool to Cylindrical cutter)

G00 Z5.000000
G00 X13.951603 Y-11.536156

G01 Z-1.000000 F100.0(Penetrate)
G02 X13.328537 Y-9.909336 Z-1.000000 I-0.061811 J0.909052 F400.000000
G02 X13.546561 Y-10.140893 Z-1.000000 I0.098368 J-0.125800
G03 X13.139205 Y-11.294812 Z-1.000000 I0.250835 J-0.737412
G03 X13.951603 Y-11.536156 Z-1.000000 I0.544388 J0.344492
G01 X13.951603 Y-11.536156 Z-1.000000
G00 Z5.000000

(End cutting path id: text3472)


(Start cutting path id: text3472)
(Change tool to Cylindrical cutter)

G00 Z5.000000
G00 X12.793534 Y-10.069579

G01 Z-1.000000 F100.0(Penetrate)
G03 X12.473702 Y-10.763834 Z-1.000000 I2.268776 J-1.465988 F400.000000
G02 X12.015286 Y-10.954796 Z-1.000000 I-0.307124 J0.091562
G02 X9.916880 Y-10.897413 Z-1.000000 I-1.046630 J0.122780
G02 X12.151582 Y-10.572458 Z-1.000000 I1.130754 J0.070308
G03 X12.470734 Y-10.150860 Z-1.000000 I-0.134510 J0.433424
G02 X12.793534 Y-10.069579 Z-1.000000 I0.172767 J-0.004504
G01 X12.793534 Y-10.069579 Z-1.000000
G00 Z5.000000

(End cutting path id: text3472)


(Start cutting path id: text3472)
(Change tool to Cylindrical cutter)

G00 Z5.000000
G00 X11.548649 Y-11.458642

G01 Z-1.000000 F100.0(Penetrate)
G02 X10.889262 Y-11.075141 Z-1.000000 I-0.200626 J0.413668 F400.000000
G03 X10.773502 Y-11.075984 Z-1.000000 I-0.057855 J-0.003805
G03 X11.466098 Y-10.877312 Z-1.000000 I0.320582 J0.188984
G01 X11.548649 Y-10.873463 Z-1.000000
G01 X11.548649 Y-11.458642 Z-1.000000
G01 X11.548649 Y-11.458642 Z-1.000000
G00 Z5.000000

(End cutting path id: text3472)


(Start cutting path id: text3472)
(Change tool to Cylindrical cutter)

G00 Z5.000000
G00 X10.306864 Y-11.069518

G01 Z-1.000000 F100.0(Penetrate)
G02 X9.411241 Y-11.289237 Z-1.000000 I-0.515513 J0.166105 F400.000000
G02 X9.048027 Y-10.119188 Z-1.000000 I0.910297 J0.923981
G02 X9.776328 Y-9.986776 Z-1.000000 I0.439579 J-0.348671
G02 X10.306864 Y-11.069518 Z-1.000000 I-0.570753 J-0.951016
G01 X10.306864 Y-11.069518 Z-1.000000
G00 Z5.000000

(End cutting path id: text3472)


(Start cutting path id: text3472)
(Change tool to Cylindrical cutter)

G00 Z5.000000
G00 X10.151835 Y-11.069518

G01 Z-1.000000 F100.0(Penetrate)
G03 X9.885994 Y-10.526578 Z-1.000000 I-0.660364 J0.013216 F400.000000
G03 X9.738855 Y-10.570736 Z-1.000000 I-0.057162 J-0.076751
G03 X9.743228 Y-10.966719 Z-1.000000 I0.530471 J-0.192157
G03 X10.151835 Y-11.069518 Z-1.000000 I0.240695 J0.093253
G01 X10.151835 Y-11.069518 Z-1.000000
G00 Z5.000000

(End cutting path id: text3472)


(Start cutting path id: text3472)
(Change tool to Cylindrical cutter)

G00 Z5.000000
G00 X9.533268 Y-11.381127

G01 Z-1.000000 F100.0(Penetrate)
G03 X9.431177 Y-10.418181 Z-1.000000 I-1.302330 J0.348813 F400.000000
G03 X9.253620 Y-10.378699 Z-1.000000 I-0.105129 J-0.053792
G03 X9.099616 Y-10.693727 Z-1.000000 I0.244267 J-0.314569
G03 X9.533268 Y-11.381127 Z-1.000000 I0.763034 J0.000880
G01 X9.533268 Y-11.381127 Z-1.000000
G00 Z5.000000

(End cutting path id: text3472)


(Start cutting path id: text3472)
(Change tool to Cylindrical cutter)

G00 Z5.000000
G00 X10.911478 Y-15.194848

G01 Z-1.000000 F100.0(Penetrate)
G03 X10.619158 Y-14.998715 Z-1.000000 I-0.182196 J0.044358 F400.000000
G03 X10.648912 Y-15.349877 Z-1.000000 I0.120880 J-0.166599
G03 X10.808344 Y-15.338750 Z-1.000000 I0.055603 J0.351057
G03 X10.911478 Y-15.194848 Z-1.000000 I-0.042588 J0.139431
G01 X10.911478 Y-15.194848 Z-1.000000
G00 Z5.000000

(End cutting path id: text3472)


(Start cutting path id: text3472)
(Change tool to Cylindrical cutter)

G00 Z5.000000
G00 X11.227738 Y-15.428942

G01 Z-1.000000 F100.0(Penetrate)
G02 X9.884349 Y-14.598138 Z-1.000000 I-0.465448 J0.748897 F400.000000
G02 X11.066508 Y-14.234649 Z-1.000000 I0.666069 J-0.062141
G02 X11.052347 Y-14.846545 Z-1.000000 I-1.648863 J-0.267954
G03 X11.227738 Y-15.428942 Z-1.000000 I0.620869 J-0.130631
G01 X11.227738 Y-15.428942 Z-1.000000
G00 Z5.000000

(End cutting path id: text3472)


(Start cutting path id: text3472)
(Change tool to Cylindrical cutter)

G00 Z5.000000
G00 X9.843327 Y-15.427392

G01 Z-1.000000 F100.0(Penetrate)
G03 X9.284852 Y-15.102300 Z-1.000000 I-0.399428 J-0.043929 F400.000000
G02 X8.913151 Y-14.819828 Z-1.000000 I-0.106101 J0.246177
G02 X9.285761 Y-14.392723 Z-1.000000 I0.365733 J0.057018
G03 X9.765812 Y-13.954613 Z-1.000000 I0.008779 J0.472439
G02 X9.860790 Y-14.657928 Z-1.000000 I-1.100451 J-0.506679
G03 X9.843327 Y-15.427392 Z-1.000000 I2.714674 J-0.446538
G01 X9.843327 Y-15.427392 Z-1.000000
G00 Z5.000000

(End cutting path id: text3472)


(Start cutting path id: text3472)
(Change tool to Cylindrical cutter)

G00 Z5.000000
G00 X9.533268 Y-18.078393

G01 Z-1.000000 F100.0(Penetrate)
G02 X9.264088 Y-18.205011 Z-1.000000 I-5.048910 J10.384126 F400.000000
G02 X8.913151 Y-18.000873 Z-1.000000 I-0.103039 J0.226584
G02 X10.458324 Y-18.770203 Z-1.000000 I0.594021 J-0.743309
G02 X10.153385 Y-18.788573 Z-1.000000 I-0.153276 J0.004193
G03 X9.701246 Y-18.795912 Z-1.000000 I-0.225676 J-0.027941
G02 X9.533268 Y-18.788573 Z-1.000000 I-0.083816 J0.007625
G01 X9.533268 Y-18.078388 Z-1.000000
G01 X9.533268 Y-18.078393 Z-1.000000
G00 Z5.000000

(End cutting path id: text3472)


(Start cutting path id: text3472)
(Change tool to Cylindrical cutter)

G00 Z5.000000
G00 X10.773502 Y-19.320177

G01 Z-1.000000 F100.0(Penetrate)
G03 X11.139573 Y-18.773038 Z-1.000000 I0.042998 J0.367264 F400.000000
G03 X10.773502 Y-18.888477 Z-1.000000 I-0.171182 J-0.095308
G01 X10.773502 Y-19.320177 Z-1.000000
G01 X10.773502 Y-19.320177 Z-1.000000
G00 Z5.000000

(End cutting path id: text3472)


(Start cutting path id: text3472)
(Change tool to Cylindrical cutter)

G00 Z5.000000
G00 X10.773502 Y-19.475206

G01 Z-1.000000 F100.0(Penetrate)
G02 X9.208985 Y-19.799887 Z-1.000000 I-0.809930 J-0.029001 F400.000000
G02 X11.240141 Y-17.923363 Z-1.000000 I1.382081 J0.541558
G02 X11.820464 Y-18.794334 Z-1.000000 I-0.343935 J-0.857980
G02 X10.773502 Y-19.475206 Z-1.000000 I-0.751749 J0.010566
G01 X10.773502 Y-19.475206 Z-1.000000
G00 Z5.000000

(End cutting path id: text3472)


(Start cutting path id: text3472)
(Change tool to Cylindrical cutter)

G00 Z5.000000
G00 X12.013737 Y-18.776024

G01 Z-1.000000 F100.0(Penetrate)
G01 X12.035381 Y-18.754153 Z-1.000000 F400.000000
G02 X11.858707 Y-18.234972 Z-1.000000 I0.498511 J0.459291
G02 X12.462433 Y-18.276581 Z-1.000000 I0.291313 J-0.173880
G02 X12.013737 Y-18.776024 Z-1.000000 I-0.341415 J-0.144549
G01 X12.013737 Y-18.776024 Z-1.000000
G00 Z5.000000

(End cutting path id: text3472)


(Start cutting path id: text3472)
(Change tool to Cylindrical cutter)

G00 Z5.000000
G00 X12.013737 Y-18.622545

G01 Z-1.000000 F100.0(Penetrate)
G03 X12.593900 Y-18.391480 Z-1.000000 I0.100177 J0.592349 F400.000000
G03 X12.575210 Y-18.191079 Z-1.000000 I-0.119476 J0.089929
G03 X12.306258 Y-18.137913 Z-1.000000 I-0.178382 J-0.195527
G03 X12.013737 Y-18.622545 Z-1.000000 I0.154321 J-0.423745
G01 X12.013737 Y-18.622545 Z-1.000000
G00 Z5.000000

(End cutting path id: text3472)


(Start cutting path id: text3472)
(Change tool to Cylindrical cutter)

G00 Z5.000000
G00 X13.874088 Y-19.163598

G01 Z-1.000000 F100.0(Penetrate)
G03 X13.578094 Y-18.969750 Z-1.000000 I-0.183916 J0.042077 F400.000000
